;FLAVOR:Marlin
;TIME:7374
;Filament used: 3.53332m
;Layer height: 0.2
;MINX:90.021
;MINY:75.115
;MINZ:0.2
;MAXX:129.938
;MAXY:144.886
;MAXZ:27
;Generated with Cura_SteamEngine 4.12.1
M140 S55
M105
M190 S55
M104 S204
M105
M109 S204
M82 ;absolute extrusion mode
; Ender 3 Custom Start G-code
G92 E0 ; Reset Extruder
G28 ; Home all axes
G1 Z2.0 F3000 ; Move Z Axis up little to prevent scratching of Heat Bed
G1 X0.1 Y20 Z0.3 F5000.0 ; Move to start position
G1 X0.1 Y200.0 Z0.3 F1500.0 E15 ; Draw the first line
G1 X0.4 Y200.0 Z0.3 F5000.0 ; Move to side a little
G1 X0.4 Y20 Z0.3 F1500.0 E30 ; Draw the second line
G92 E0 ; Reset Extruder
G1 Z2.0 F3000 ; Move Z Axis up little to prevent scratching of Heat Bed
G1 X5 Y20 Z0.3 F5000.0 ; Move over to prevent blob squish
G92 E0
G92 E0
G1 F2700 E-5
;LAYER_COUNT:135
;LAYER:0
M107
G0 F6000 X121.435 Y83.215 Z0.2
;TYPE:SKIRT
G1 F2700 E0
G1 F1200 X121.662 Y83.063 E0.00909
G1 X121.92 Y83.158 E0.01823
G1 X122.051 Y83.332 E0.02547
G1 X122.066 Y83.521 E0.03178
G1 X121.927 Y83.745 E0.04055
G1 X121.739 Y83.813 E0.0472
G1 X121.513 Y83.76 E0.05492
G1 X121.38 Y83.605 E0.06171
G1 X121.354 Y83.381 E0.06921
G1 X121.435 Y83.215 E0.07536
G0 F6000 X121.156 Y82.926
G1 F1200 X121.3 Y82.807 E0.08157
G1 X121.574 Y82.653 E0.09202
G1 X121.666 Y82.646 E0.09509
G1 X121.998 Y82.749 E0.10665
G1 X122.245 Y82.906 E0.11639
G1 X122.424 Y83.179 E0.12725
G1 X122.476 Y83.458 E0.13668
G1 X122.421 Y83.725 E0.14575
G1 X122.209 Y84.031 E0.15813
G1 X121.999 Y84.158 E0.1663
G1 X121.738 Y84.215 E0.17518
G1 X121.391 Y84.148 E0.18694
G1 X121.187 Y84.008 E0.19516
G1 X121.021 Y83.782 E0.20449
G1 X120.947 Y83.427 E0.21655
G1 X121.006 Y83.159 E0.22568
G1 X121.156 Y82.926 E0.2349
G0 F6000 X120.877 Y82.637
G1 F1200 X121.07 Y82.478 E0.24321
G1 X121.435 Y82.273 E0.25714
G1 X121.687 Y82.243 E0.26558
G1 X121.783 Y82.263 E0.26884
G1 X122.148 Y82.377 E0.28156
G1 X122.527 Y82.62 E0.29653
G1 X122.685 Y82.824 E0.30511
G1 X122.858 Y83.242 E0.32016
G1 X122.861 Y83.61 E0.3324
G1 X122.791 Y83.881 E0.34171
G1 X122.667 Y84.107 E0.35028
G1 X122.492 Y84.314 E0.3593
G1 X122.154 Y84.529 E0.37262
G1 X121.738 Y84.617 E0.38677
G1 X121.471 Y84.59 E0.39569
G1 X121.059 Y84.423 E0.41048
G1 X120.905 Y84.294 E0.41716
G1 X120.719 Y84.075 E0.42672
G1 X120.569 Y83.702 E0.44009
G1 X120.546 Y83.421 E0.44946
G1 X120.639 Y82.995 E0.46397
G1 X120.877 Y82.637 E0.47827
G0 F6000 X120.59 Y82.357
G1 F1200 X120.848 Y82.143 E0.48941
G1 X121.274 Y81.904 E0.50566
G1 X121.4 Y81.865 E0.51005
G1 X121.687 Y81.841 E0.51963
G1 X121.902 Y81.881 E0.5269
G1 X122.298 Y82.004 E0.54069
G1 X122.581 Y82.149 E0.55127
G1 X122.814 Y82.338 E0.56125
G1 X123.005 Y82.573 E0.57132
G1 X123.165 Y82.864 E0.58236
G1 X123.254 Y83.168 E0.5929
G1 X123.28 Y83.469 E0.60295
G1 X123.252 Y83.727 E0.61158
G1 X123.162 Y84.039 E0.62238
G1 X122.999 Y84.334 E0.63359
G1 X122.779 Y84.595 E0.64494
G1 X122.583 Y84.756 E0.65338
G1 X122.313 Y84.897 E0.66351
G1 X122.259 Y84.915 E0.6654
G1 X122.002 Y84.992 E0.67433
G1 X121.738 Y85.019 E0.68315
G1 X121.39 Y84.984 E0.69479
G1 X121.077 Y84.888 E0.70568
G1 X120.84 Y84.76 E0.71463
G1 X120.621 Y84.578 E0.72411
G1 X120.383 Y84.297 E0.73635
G1 X120.262 Y84.047 E0.74559
G1 X120.174 Y83.781 E0.75491
G1 X120.144 Y83.42 E0.76696
G1 X120.173 Y83.133 E0.77655
G1 X120.268 Y82.844 E0.78667
G1 X120.418 Y82.557 E0.79744
G1 X120.59 Y82.357 E0.80621
G0 F6000 X120.311 Y82.068
G1 F1200 X120.617 Y81.814 E0.81944
G1 X121.115 Y81.535 E0.83843
G1 X121.328 Y81.47 E0.84583
G1 X121.687 Y81.439 E0.85782
G1 X121.989 Y81.488 E0.868
G1 X122.453 Y81.633 E0.88416
G1 X122.791 Y81.806 E0.89679
G1 X123.101 Y82.056 E0.91004
G1 X123.345 Y82.357 E0.92293
G1 X123.385 Y82.437 E0.9259
G1 X123.537 Y82.712 E0.93635
G1 X123.65 Y83.095 E0.94963
G1 X123.681 Y83.469 E0.96212
G1 X123.653 Y83.733 E0.97094
G1 X123.61 Y83.94 E0.97798
G1 X123.531 Y84.196 E0.98689
G1 X123.33 Y84.561 E1.00075
G1 X123.063 Y84.878 E1.01453
G1 X122.802 Y85.092 E1.02576
G1 X122.472 Y85.265 E1.03815
G1 X122.375 Y85.298 E1.04156
G1 X122.079 Y85.387 E1.05184
G1 X121.738 Y85.421 E1.06324
G1 X121.309 Y85.378 E1.07758
G1 X120.923 Y85.26 E1.091
G1 X120.616 Y85.094 E1.10261
G1 X120.339 Y84.863 E1.11461
G1 X120.044 Y84.515 E1.12978
G1 X119.889 Y84.194 E1.14164
G1 X119.779 Y83.86 E1.15333
G1 X119.742 Y83.419 E1.16805
G1 X119.779 Y83.049 E1.18042
G1 X119.899 Y82.684 E1.1932
G1 X120.082 Y82.335 E1.2063
G1 X120.311 Y82.068 E1.218
G0 F6000 X120.029 Y81.782
G1 F1200 X120.392 Y81.482 E1.23367
G1 X120.959 Y81.164 E1.25529
G1 X121.245 Y81.076 E1.26524
G1 X121.686 Y81.038 E1.27996
G1 X121.985 Y81.064 E1.28995
G1 X122.14 Y81.117 E1.29539
G1 X122.603 Y81.261 E1.31152
G1 X123.003 Y81.466 E1.32647
G1 X123.084 Y81.527 E1.32984
G1 X123.383 Y81.77 E1.34266
G1 X123.683 Y82.14 E1.3585
G1 X123.735 Y82.243 E1.36234
G1 X123.906 Y82.553 E1.37411
G1 X124.044 Y83.021 E1.39034
G1 X124.083 Y83.481 E1.4057
G1 X124.052 Y83.764 E1.41517
G1 X123.996 Y84.045 E1.4247
G1 X123.902 Y84.352 E1.43537
G1 X123.66 Y84.791 E1.45205
G1 X123.35 Y85.159 E1.46805
G1 X123.222 Y85.269 E1.47366
G1 X123.022 Y85.429 E1.48218
G1 X122.629 Y85.635 E1.49694
G1 X122.5 Y85.678 E1.50146
G1 X122.157 Y85.781 E1.51337
G1 X121.737 Y85.823 E1.52741
G1 X121.233 Y85.772 E1.54426
G1 X120.769 Y85.63 E1.5604
G1 X120.387 Y85.424 E1.57484
G1 X120.057 Y85.15 E1.5891
G1 X119.708 Y84.737 E1.60709
G1 X119.568 Y84.453 E1.61762
G1 X119.517 Y84.345 E1.62159
G1 X119.385 Y83.942 E1.6357
G1 X119.341 Y83.413 E1.65335
G1 X119.385 Y82.965 E1.66832
G1 X119.529 Y82.531 E1.68353
G1 X119.738 Y82.128 E1.69863
G1 X119.745 Y82.113 E1.69918
G1 X120.029 Y81.782 E1.71369
G0 F6000 X119.748 Y81.496
G1 F1200 X120.164 Y81.151 E1.73166
G1 X120.799 Y80.795 E1.75588
G1 X121.173 Y80.68 E1.76889
G1 X121.686 Y80.636 E1.78601
G1 X122.067 Y80.669 E1.79873
G1 X122.259 Y80.735 E1.80549
G1 X122.753 Y80.889 E1.8227
G1 X123.219 Y81.127 E1.8401
G1 X123.336 Y81.216 E1.84499
G1 X123.668 Y81.485 E1.8592
G1 X124.022 Y81.922 E1.87791
G1 X124.085 Y82.05 E1.88265
G1 X124.279 Y82.401 E1.89599
G1 X124.44 Y82.948 E1.91496
G1 X124.485 Y83.481 E1.93275
G1 X124.451 Y83.794 E1.94322
G1 X124.442 Y83.917 E1.94732
G1 X124.376 Y84.171 E1.95605
G1 X124.272 Y84.51 E1.96784
G1 X123.994 Y85.014 E1.98699
G1 X123.634 Y85.442 E2.00559
G1 X123.479 Y85.576 E2.0124
G1 X123.24 Y85.767 E2.02258
G1 X122.788 Y86.003 E2.03954
G1 X122.628 Y86.057 E2.04516
G1 X122.234 Y86.175 E2.05883
G1 X121.737 Y86.225 E2.07545
G1 X121.152 Y86.166 E2.095
G1 X120.616 Y86.002 E2.11365
G1 X120.163 Y85.758 E2.13076
G1 X119.771 Y85.431 E2.14774
G1 X119.37 Y84.957 E2.16839
G1 X119.211 Y84.633 E2.18039
G1 X119.145 Y84.492 E2.18557
G1 X118.99 Y84.021 E2.20206
G1 X118.939 Y83.412 E2.22239
G1 X118.992 Y82.882 E2.24011
G1 X119.159 Y82.373 E2.25792
G1 X119.373 Y81.963 E2.27331
G1 X119.403 Y81.898 E2.27569
G1 X119.748 Y81.496 E2.29331
G1 F2700 E-2.70669
G0 F6000 X108.28 Y111.034
G0 X108.241 Y111.658
G0 X107.707 Y113.377
G0 X106.844 Y114.972
G0 X98.8 Y135.46
G1 F2700 E2.29331
G1 F1200 X98.8 Y140.11 E2.44797
G1 X98.07 Y139.832 E2.47395
G1 X97.928 Y139.832 E2.47867
G1 X97.193 Y140.111 E2.50482
G1 X97.193 Y135.46 E2.65951
G1 X97.921 Y135.758 E2.68567
G1 X98.073 Y135.758 E2.69073
G1 X98.8 Y135.46 E2.71686
G0 F6000 X98.4 Y136.056
G1 F1200 X98.4 Y139.53 E2.83241
G1 X97.998 Y139.419 E2.84628
G1 X97.593 Y139.531 E2.86025
G1 X97.593 Y136.056 E2.97583
G1 X97.983 Y136.173 E2.98938
G1 X98.4 Y136.056 E3.00378
G0 F6000 X98 Y136.563
G1 F1200 X98 Y139.027 E3.08573
G1 X97.993 Y139.027 E3.08597
G1 X97.993 Y136.563 E3.16792
G1 X98 Y136.563 E3.16815
G1 F2700 E-1.83185
;MESH:Index3.stl
G0 F6000 X118.861 Y136.563
G0 X117.406 Y136.563
G0 X117.766 Y141.912
G0 X118.727 Y142.062
G0 X121.135 Y143.63
;TYPE:WALL-INNER
G1 F2700 E3.16815
G1 F1200 X122.872 Y142.332 E3.24027
G1 X124.672 Y142.058 E3.30083
G1 X124.672 Y132.677 E3.61285
G1 X123.609 Y132.523 E3.64857
G1 X122.694 Y132.38 E3.67937
G1 X121.135 Y132.306 E3.73128
G1 X119.576 Y132.38 E3.78319
G1 X117.596 Y132.681 E3.84981
G1 X117.596 Y142.058 E4.16169
G1 X119.398 Y142.332 E4.22231
G1 X121.135 Y143.63 E4.29443
G0 F6000 X121.135 Y143.131
;TYPE:WALL-OUTER
G1 F1200 X122.713 Y141.952 E4.35995
G1 X124.272 Y141.714 E4.4124
G1 X124.272 Y133.024 E4.70143
G1 X123.556 Y132.921 E4.72549
G1 X123.534 Y132.916 E4.72624
G1 X122.654 Y132.779 E4.75586
G1 X121.135 Y132.706 E4.80644
G1 X119.616 Y132.779 E4.85702
G1 X117.996 Y133.025 E4.91152
G1 X117.996 Y141.714 E5.20052
G1 X119.557 Y141.952 E5.25304
G1 X121.135 Y143.131 E5.31856
G1 F2700 E0.31856
G0 F6000 X120.956 Y143.371
G0 X120.462 Y143.365
G0 X120.388 Y144.12
G0 X119.796 Y144.255
;TYPE:WALL-INNER
G1 F2700 E5.31856
G1 F1200 X118.506 Y143.861 E5.36342
G1 X117.314 Y143.224 E5.40837
G1 X117.172 Y143.111 E5.41441
G1 X116.271 Y142.374 E5.45312
G1 X116.163 Y142.238 E5.4589
G1 X115.421 Y141.329 E5.49792
G1 X114.785 Y140.136 E5.54289
G1 X114.73 Y139.965 E5.54886
G1 X114.392 Y138.853 E5.58752
G1 X114.262 Y137.507 E5.6325
G1 X114.275 Y137.339 E5.6381
G1 X114.393 Y136.172 E5.67711
G1 X114.446 Y136.007 E5.68288
G1 X114.788 Y134.877 E5.72215
G1 X115.422 Y133.692 E5.76685
G1 X115.53 Y133.556 E5.77262
G1 X116.269 Y132.655 E5.81138
G1 X116.416 Y132.538 E5.81763
G1 X117.326 Y131.792 E5.85677
G1 X118.369 Y131.233 E5.89612
G1 X118.494 Y131.174 E5.90072
G1 X119.798 Y130.78 E5.94603
G1 X121.136 Y130.651 E5.99074
G1 X122.284 Y130.761 E6.02909
G1 X122.473 Y130.781 E6.03542
G1 X123.761 Y131.169 E6.08016
G1 X124.766 Y131.702 E6.11799
G1 X125.101 Y131.922 E6.13132
G1 X125.99 Y132.647 E6.16948
G1 X126.098 Y132.784 E6.17528
G1 X126.847 Y133.7 E6.21463
G1 X126.936 Y133.855 E6.22058
G1 X127.483 Y134.881 E6.25925
G1 X127.535 Y135.046 E6.265
G1 X127.872 Y136.185 E6.30451
G1 X127.893 Y136.348 E6.30998
G1 X128.009 Y137.508 E6.34875
G1 X127.867 Y138.866 E6.39417
G1 X127.822 Y139.037 E6.40005
G1 X127.485 Y140.137 E6.43831
G1 X126.84 Y141.336 E6.48359
G1 X126.731 Y141.477 E6.48952
G1 X125.998 Y142.371 E6.52797
G1 X124.951 Y143.227 E6.57295
G1 X123.764 Y143.862 E6.61773
G1 X122.47 Y144.255 E6.66271
G1 X121.135 Y144.385 E6.70732
G1 X119.796 Y144.255 E6.75206
G0 F6000 X119.715 Y144.649
;TYPE:WALL-OUTER
G1 F1200 X118.352 Y144.233 E6.79946
G1 X117.095 Y143.561 E6.84687
G1 X116.923 Y143.424 E6.85418
G1 X115.986 Y142.657 E6.89446
G1 X115.852 Y142.489 E6.90161
G1 X115.087 Y141.553 E6.94181
G1 X114.414 Y140.29 E6.98941
G1 X114.349 Y140.088 E6.99647
G1 X113.998 Y138.933 E7.03662
G1 X113.86 Y137.508 E7.08424
G1 X113.877 Y137.299 E7.09121
G1 X113.999 Y136.088 E7.13169
G1 X114.064 Y135.887 E7.13872
G1 X114.414 Y134.731 E7.17889
G1 X114.422 Y134.712 E7.17958
G1 X115.085 Y133.473 E7.22632
G1 X115.221 Y133.302 E7.23358
G1 X115.987 Y132.368 E7.27376
G1 X116.165 Y132.227 E7.28131
G1 X117.104 Y131.457 E7.3217
G1 X118.18 Y130.88 E7.36231
G1 X118.352 Y130.799 E7.36863
G1 X119.499 Y130.451 E7.4085
G1 X119.722 Y130.386 E7.41622
G1 X121.135 Y130.249 E7.46344
G1 X122.326 Y130.363 E7.50324
G1 X122.551 Y130.387 E7.51076
G1 X123.912 Y130.797 E7.55804
G1 X124.974 Y131.36 E7.59802
G1 X125.339 Y131.6 E7.61255
G1 X126.277 Y132.365 E7.6528
G1 X126.41 Y132.533 E7.65993
G1 X127.177 Y133.472 E7.70026
G1 X127.289 Y133.667 E7.70774
G1 X127.855 Y134.728 E7.74773
G1 X127.919 Y134.932 E7.75484
G1 X128.265 Y136.1 E7.79536
G1 X128.291 Y136.308 E7.80233
G1 X128.411 Y137.511 E7.84254
G1 X128.262 Y138.938 E7.89026
G1 X128.209 Y139.139 E7.89718
G1 X127.855 Y140.294 E7.93736
G1 X127.175 Y141.557 E7.98507
G1 X127.045 Y141.723 E7.99208
G1 X126.279 Y142.658 E8.03228
G1 X125.173 Y143.562 E8.07979
G1 X123.919 Y144.233 E8.12709
G1 X122.55 Y144.649 E8.17468
G1 X121.135 Y144.787 E8.22197
G1 X119.92 Y144.669 E8.26257
G1 X119.715 Y144.649 E8.26942
G0 F6000 X119.8 Y144.218
G0 X119.873 Y143.871
;TYPE:SKIN
G1 F1200 X118.659 Y143.5 E8.31164
G1 X117.528 Y142.897 E8.35427
G1 X116.55 Y142.098 E8.39628
G1 X115.746 Y141.112 E8.43859
G1 X115.146 Y139.985 E8.48106
G1 X115.101 Y139.845 E8.48595
G1 X114.776 Y138.777 E8.52308
G1 X114.653 Y137.501 E8.56571
G1 X114.663 Y137.378 E8.56982
G1 X114.777 Y136.252 E8.60746
G1 X114.818 Y136.124 E8.61193
G1 X115.15 Y135.024 E8.65015
G1 X115.746 Y133.911 E8.69214
G1 X116.547 Y132.932 E8.73421
G1 X116.661 Y132.842 E8.73904
G1 X117.206 Y132.395 E8.76249
G1 X117.206 Y142.393 E9.09502
G1 X119.244 Y142.704 E9.16359
G1 X120.945 Y143.975 E9.23421
G1 X119.873 Y143.871 E9.27004
G0 F6000 X119.846 Y144.148
G0 X121.351 Y144.253
G0 X121.325 Y143.975
G1 F1200 X123.026 Y142.704 E9.34066
G1 X125.062 Y142.393 E9.40916
G1 X125.062 Y132.393 E9.74177
G1 X125.711 Y132.922 E9.76961
G1 X125.794 Y133.028 E9.77409
G1 X126.527 Y133.925 E9.81262
G1 X126.592 Y134.038 E9.81696
G1 X127.122 Y135.032 E9.85442
G1 X127.161 Y135.157 E9.85878
G1 X127.49 Y136.27 E9.89738
G1 X127.505 Y136.387 E9.9013
G1 X127.617 Y137.503 E9.93861
G1 X127.482 Y138.797 E9.98188
G1 X127.449 Y138.922 E9.98618
G1 X127.122 Y139.989 E10.0233
G1 X126.513 Y141.122 E10.06608
G1 X126.441 Y141.215 E10.06999
G1 X125.721 Y142.094 E10.10778
G1 X124.73 Y142.904 E10.15035
G1 X123.617 Y143.5 E10.19235
G1 X122.394 Y143.871 E10.23485
G1 X121.325 Y143.975 E10.27058
G0 F6000 X121.351 Y144.253
G0 X119.831 Y144.087
G0 X118.571 Y143.702
G0 X117.28 Y142.979
G0 X116.296 Y142.131
G0 X115.561 Y141.23
G0 X114.892 Y139.912
G0 X114.56 Y138.818
G0 X114.445 Y137.357
G0 X114.608 Y136.059
G0 X114.947 Y134.942
G0 X115.661 Y133.664
G0 X116.358 Y132.86
G0 X117.102 Y132.118
G0 X117.279 Y132.335
G1 F1200 X117.547 Y132.115 E10.28211
G1 X118.535 Y131.586 E10.31938
G1 X118.637 Y131.538 E10.32313
G1 X119.873 Y131.164 E10.36608
G1 X121.136 Y131.043 E10.40828
G1 X122.398 Y131.165 E10.45045
G1 X123.608 Y131.53 E10.49249
G1 X124.572 Y132.041 E10.52878
G1 X124.873 Y132.24 E10.54078
G1 X124.982 Y132.328 E10.54544
G1 X123.669 Y132.137 E10.58957
G1 X122.733 Y131.992 E10.62107
G1 X121.135 Y131.916 E10.67428
G1 X119.537 Y131.992 E10.72749
G1 X117.279 Y132.335 E10.80345
G1 F2700 E5.80345
G0 F6000 X117.102 Y132.118
G0 X117.442 Y131.968
G0 X117.519 Y132.481
G0 X121.135 Y132.466
G0 X122.678 Y132.541
G0 X124.502 Y132.825
G0 X124.782 Y133.141
G1 F2700 E10.80345
G0 F6000 X125.221 Y133.141
G1 F1200 X126.746 Y134.665 E10.87516
G0 F6000 X127.134 Y134.459
G0 X127.551 Y135.49
G0 X127.129 Y135.614
G1 F1200 X125.221 Y133.706 E10.96491
G0 F6000 X125.221 Y134.272
G1 F1200 X127.345 Y136.396 E11.06481
G0 F6000 X127.408 Y137.025
G1 F1200 X125.221 Y134.838 E11.16768
G0 F6000 X125.221 Y135.403
G1 F1200 X127.443 Y137.625 E11.2722
G0 F6000 X127.389 Y138.137
G1 F1200 X125.221 Y135.969 E11.37418
G0 F6000 X125.221 Y136.535
G1 F1200 X127.335 Y138.649 E11.47361
G0 F6000 X127.225 Y139.104
G1 F1200 X125.221 Y137.1 E11.56787
G0 F6000 X125.221 Y137.666
G1 F1200 X127.092 Y139.537 E11.65588
G0 F6000 X126.953 Y139.964
G1 F1200 X125.221 Y138.232 E11.73735
G0 F6000 X125.221 Y138.797
G1 F1200 X126.755 Y140.332 E11.80953
G0 F6000 X126.557 Y140.7
G1 F1200 X125.221 Y139.363 E11.87239
G0 F6000 X125.221 Y139.929
G1 F1200 X126.356 Y141.064 E11.92578
G0 F6000 X126.101 Y141.375
G1 F1200 X125.221 Y140.495 E11.96717
G0 F6000 X125.221 Y141.06
G1 F1200 X125.847 Y141.686 E11.99662
G0 F6000 X125.588 Y141.993
G1 F1200 X125.221 Y141.626 E12.01388
G0 F6000 X124.782 Y141.626
G0 X124.468 Y142.2
G0 X124.534 Y142.636
G1 F1200 X124.654 Y142.756 E12.01952
G0 F6000 X124.289 Y142.957
G1 F1200 X124.042 Y142.71 E12.03114
G0 F6000 X123.921 Y143.154
G1 F1200 X123.552 Y142.785 E12.0485
G0 F6000 X123.07 Y142.869
G1 F1200 X123.552 Y143.351 E12.07117
G0 F6000 X123.118 Y143.483
G1 F1200 X122.747 Y143.112 E12.08862
G0 F6000 X122.423 Y143.353
G1 F1200 X122.684 Y143.614 E12.1009
G0 F6000 X122.229 Y143.725
G1 F1200 X122.1 Y143.596 E12.10697
G1 F2700 E7.10697
G0 F6000 X121.839 Y143.242
G0 X121.27 Y143.386
G0 X120.491 Y143.386
G0 X120.419 Y144.123
G0 X119.916 Y144.155
G1 F2700 E12.10697
G0 F6000 X119.958 Y143.717
G1 F1200 X119.081 Y142.84 E12.14822
G0 F6000 X119.16 Y143.485
G1 F1200 X118.414 Y142.738 E12.18333
G0 F6000 X118.163 Y143.054
G1 F1200 X117.746 Y142.636 E12.20297
G0 F6000 X117.045 Y141.936
G1 F1200 X115.592 Y140.483 E12.27131
G0 F6000 X115.204 Y140.689
G0 X114.737 Y139.608
G0 X115.157 Y139.481
G1 F1200 X117.045 Y141.37 E12.36014
G0 F6000 X117.045 Y140.804
