;FLAVOR:Marlin
;TIME:1102
;Filament used: 0.182044m
;Layer height: 0.12
;MINX:97.783
;MINY:102.424
;MINZ:0.12
;MAXX:122.109
;MAXY:113.063
;MAXZ:23.04
;Generated with Cura_SteamEngine 4.12.1
M140 S55
M105
M190 S55
M104 S205
M105
M109 S205
M82 ;absolute extrusion mode
; Ender 3 Custom Start G-code
G92 E0 ; Reset Extruder
G28 ; Home all axes
G1 Z2.0 F3000 ; Move Z Axis up little to prevent scratching of Heat Bed
G1 X0.1 Y20 Z0.3 F5000.0 ; Move to start position
G1 X0.1 Y200.0 Z0.3 F1500.0 E15 ; Draw the first line
G1 X0.4 Y200.0 Z0.3 F5000.0 ; Move to side a little
G1 X0.4 Y20 Z0.3 F1500.0 E30 ; Draw the second line
G92 E0 ; Reset Extruder
G1 Z2.0 F3000 ; Move Z Axis up little to prevent scratching of Heat Bed
G1 X5 Y20 Z0.3 F5000.0 ; Move over to prevent blob squish
G92 E0
G92 E0
G1 F2700 E-5
;LAYER_COUNT:192
;LAYER:0
M107
G0 F6000 X102.444 Y104.384 Z0.12
;TYPE:SUPPORT-INTERFACE
G1 F2700 E0
G1 F1200 X121.244 Y104.385 E0.37517
G1 X121.244 Y105.53 E0.39802
G1 X102.444 Y105.53 E0.7732
G1 X102.444 Y104.384 E0.79607
G0 F6000 X104.583 Y104.583
G1 F1200 X105.329 Y105.329 E0.81712
G0 F6000 X105.105 Y105.329
G1 F1200 X105.851 Y104.583 E0.83818
G0 F6000 X107.978 Y104.583
G1 F1200 X108.723 Y105.329 E0.85922
G0 F6000 X108.499 Y105.329
G1 F1200 X109.245 Y104.583 E0.88027
G0 F6000 X111.372 Y104.583
G1 F1200 X112.117 Y105.329 E0.90131
G0 F6000 X111.893 Y105.329
G1 F1200 X112.639 Y104.583 E0.92236
G0 F6000 X114.766 Y104.584
G1 F1200 X115.511 Y105.329 E0.94339
G0 F6000 X115.287 Y105.329
G1 F1200 X116.033 Y104.583 E0.96444
G0 F6000 X118.161 Y104.584
G1 F1200 X118.905 Y105.329 E0.98545
G0 F6000 X118.681 Y105.329
G1 F1200 X119.427 Y104.583 E1.00651
G1 F2700 E-3.99349
;MESH:FingerBoltsV2.stl(1)
G0 F6000 X119.427 Y103.519
G0 X121.617 Y103.524
G0 X122.105 Y104.012
G0 X122.105 Y105.903
G0 X121.617 Y106.391
G0 X109.602 Y106.963
G0 X108.941 Y107.127
G0 X108.114 Y107.586
G0 X107.682 Y108.018
G0 X107.467 Y108.34
G0 X106.703 Y109.469
G0 X105.193 Y111.007
;TYPE:WALL-INNER
G1 F2700 E1.00651
G1 F1200 X104.885 Y111.076 E1.01281
G1 X104.585 Y111.075 E1.01879
G1 X104.264 Y111.001 E1.02537
G1 X103.995 Y110.871 E1.03133
G1 X103.749 Y110.673 E1.03763
G1 X103.548 Y110.421 E1.04406
G1 X103.423 Y110.159 E1.04986
G1 X103.348 Y109.834 E1.05651
G1 X103.35 Y109.52 E1.06278
G1 X103.422 Y109.213 E1.06907
G1 X103.471 Y109.097 E1.07158
G1 X103.652 Y108.81 E1.07836
G1 X103.866 Y108.595 E1.08441
G1 X103.981 Y108.513 E1.08723
G1 X104.279 Y108.371 E1.09382
G1 X104.592 Y108.3 E1.10022
G1 X104.886 Y108.301 E1.10609
G1 X105.222 Y108.379 E1.11297
G1 X105.327 Y108.423 E1.11524
G1 X105.614 Y108.604 E1.12201
G1 X105.822 Y108.811 E1.12787
G1 X105.997 Y109.088 E1.13441
G1 X106.048 Y109.212 E1.13708
G1 X106.124 Y109.544 E1.14388
G1 X106.123 Y109.838 E1.14975
G1 X106.045 Y110.177 E1.15669
G1 X106.001 Y110.281 E1.15894
G1 X105.827 Y110.558 E1.16547
G1 X105.587 Y110.796 E1.17222
G1 X105.493 Y110.862 E1.17451
G1 X105.193 Y111.007 E1.18116
G0 F6000 X105.325 Y111.387
G1 F1200 X104.928 Y111.476 E1.18928
G1 X104.538 Y111.475 E1.19706
G1 X104.13 Y111.381 E1.20542
G1 X103.782 Y111.212 E1.21314
G1 X103.463 Y110.956 E1.2213
G1 X103.206 Y110.633 E1.22954
G1 X103.043 Y110.292 E1.23708
G1 X102.948 Y109.88 E1.24552
G1 X102.95 Y109.474 E1.25362
G1 X103.041 Y109.089 E1.26151
G1 X103.115 Y108.911 E1.26536
G1 X103.336 Y108.561 E1.27362
G1 X103.609 Y108.287 E1.28134
G1 X103.776 Y108.168 E1.28543
G1 X104.148 Y107.991 E1.29365
G1 X104.547 Y107.9 E1.30182
G1 X104.933 Y107.901 E1.30952
G1 X105.343 Y107.996 E1.31792
G1 X105.513 Y108.067 E1.3216
G1 X105.863 Y108.288 E1.32986
G1 X106.137 Y108.561 E1.33758
G1 X106.356 Y108.906 E1.34573
G1 X106.43 Y109.088 E1.34965
G1 X106.524 Y109.499 E1.35807
G1 X106.523 Y109.885 E1.36577
G1 X106.428 Y110.295 E1.37417
G1 X106.357 Y110.466 E1.37786
G1 X106.139 Y110.812 E1.38602
G1 X105.847 Y111.102 E1.39424
G1 X105.696 Y111.208 E1.39792
G1 X105.325 Y111.387 E1.40614
G0 F6000 X105.456 Y111.767
;TYPE:WALL-OUTER
G1 F1200 X104.983 Y111.873 E1.41581
G1 X104.732 Y111.887 E1.42083
G1 X104.479 Y111.872 E1.42589
G1 X104.008 Y111.764 E1.43553
G1 X103.778 Y111.668 E1.4405
G1 X103.558 Y111.545 E1.44553
G1 X103.177 Y111.239 E1.45529
G1 X102.87 Y110.853 E1.46513
G1 X102.754 Y110.642 E1.46993
G1 X102.659 Y110.409 E1.47495
G1 X102.551 Y109.94 E1.48456
G1 X102.537 Y109.683 E1.4897
G1 X102.552 Y109.431 E1.49473
G1 X102.591 Y109.199 E1.49943
G1 X102.662 Y108.959 E1.50442
G1 X102.758 Y108.728 E1.50941
G1 X103.018 Y108.316 E1.51914
G1 X103.189 Y108.126 E1.52424
G1 X103.366 Y107.968 E1.52897
G1 X103.573 Y107.822 E1.53403
G1 X104.014 Y107.611 E1.54378
G1 X104.489 Y107.503 E1.55351
G1 X104.74 Y107.489 E1.55852
G1 X104.993 Y107.504 E1.56358
G1 X105.464 Y107.613 E1.57323
G1 X105.696 Y107.71 E1.57825
G1 X106.108 Y107.97 E1.58797
G1 X106.298 Y108.141 E1.59307
G1 X106.456 Y108.318 E1.5978
G1 X106.602 Y108.525 E1.60286
G1 X106.718 Y108.735 E1.60765
G1 X106.813 Y108.967 E1.61265
G1 X106.921 Y109.441 E1.62235
G1 X106.935 Y109.692 E1.62737
G1 X106.92 Y109.945 E1.63243
G1 X106.811 Y110.416 E1.64207
G1 X106.714 Y110.649 E1.64711
G1 X106.451 Y111.066 E1.65695
G1 X106.107 Y111.408 E1.66663
G1 X105.901 Y111.553 E1.67166
G1 X105.456 Y111.767 E1.68151
G0 F6000 X105.312 Y111.352
G0 X105.062 Y110.637
;TYPE:SKIN
G1 F1200 X104.63 Y110.685 E1.69018
G1 X104.206 Y110.54 E1.69913
G1 X103.884 Y110.217 E1.70823
G1 X103.738 Y109.79 E1.71723
G1 X103.74 Y109.565 E1.72172
G1 X103.817 Y109.279 E1.72763
G1 X103.958 Y109.056 E1.7329
G1 X104.176 Y108.852 E1.73886
G1 X104.411 Y108.741 E1.74404
G1 X104.84 Y108.691 E1.75266
G1 X105.107 Y108.753 E1.75813
G1 X105.141 Y108.767 E1.75887
G1 X105.368 Y108.91 E1.76422
G1 X105.517 Y109.058 E1.76841
G1 X105.674 Y109.328 E1.77465
G1 X105.734 Y109.587 E1.77995
G1 X105.733 Y109.794 E1.78408
G1 X105.673 Y110.056 E1.78945
G1 X105.523 Y110.31 E1.79533
G1 X105.337 Y110.494 E1.80055
G1 X105.291 Y110.526 E1.80167
G1 X105.062 Y110.637 E1.80675
G0 F6000 X104.842 Y110.498
G1 F1200 X103.905 Y109.562 E1.83318
G0 F6000 X104.076 Y109.167
G1 F1200 X105.256 Y110.347 E1.86648
G0 F6000 X105.503 Y110.029
G1 F1200 X104.397 Y108.923 E1.8977
G0 F6000 X104.91 Y108.87
G1 F1200 X105.552 Y109.512 E1.91581
G0 F6000 X105.981 Y109.414
G0 X105.851 Y110.198
G0 X105.478 Y110.663
G0 X105.138 Y110.844
G0 X104.838 Y110.877
G0 X104.243 Y110.868
G0 X104.282 Y110.788
;TYPE:SKIN
G1 F1200 X104.35 Y110.855 E1.91677
G0 F6000 X104.338 Y110.904
G0 X104.073 Y110.704
G0 X103.551 Y110.171
G0 X103.629 Y110.134
G1 F1200 X103.567 Y110.072 E1.91764
G0 F6000 X103.226 Y110.15
G1 F2700 E-3.08236
;MESH:FingerBoltsV2.stl
G0 F6000 X104.319 Y110.838
G0 X104.866 Y110.905
G0 X106.601 Y110.347
G0 X108.032 Y110.213
G0 X109.274 Y110.968
G0 X110.144 Y111.388
;TYPE:WALL-INNER
G1 F2700 E1.91764
G1 F1200 X109.85 Y111.387 E1.92351
G1 X109.514 Y111.309 E1.93039
G1 X109.409 Y111.265 E1.93266
G1 X109.122 Y111.084 E1.93944
G1 X108.914 Y110.877 E1.94529
G1 X108.739 Y110.6 E1.95183
G1 X108.688 Y110.476 E1.95451
G1 X108.611 Y110.139 E1.9614
G1 X108.613 Y109.851 E1.96715
G1 X108.691 Y109.514 E1.97406
G1 X108.735 Y109.409 E1.97633
G1 X108.916 Y109.122 E1.9831
G1 X109.13 Y108.907 E1.98915
G1 X109.245 Y108.825 E1.99197
G1 X109.543 Y108.683 E1.99856
G1 X109.856 Y108.612 E2.00496
G1 X110.15 Y108.613 E2.01083
G1 X110.486 Y108.691 E2.01771
G1 X110.591 Y108.735 E2.01999
G1 X110.878 Y108.916 E2.02676
G1 X111.093 Y109.13 E2.03281
G1 X111.175 Y109.245 E2.03563
G1 X111.317 Y109.543 E2.04222
G1 X111.391 Y109.866 E2.04883
G1 X111.397 Y109.982 E2.05115
G1 X111.359 Y110.317 E2.05788
G1 X111.259 Y110.601 E2.06388
G1 X111.084 Y110.878 E2.07042
G1 X110.87 Y111.093 E2.07648
G1 X110.755 Y111.175 E2.0793
G1 X110.457 Y111.317 E2.08588
G1 X110.144 Y111.388 E2.09229
G0 F6000 X110.189 Y111.788
G1 F1200 X109.803 Y111.787 E2.09999
G1 X109.393 Y111.692 E2.10839
G1 X109.223 Y111.621 E2.11207
G1 X108.873 Y111.4 E2.12033
G1 X108.599 Y111.127 E2.12805
G1 X108.38 Y110.782 E2.1362
G1 X108.306 Y110.6 E2.14012
G1 X108.211 Y110.183 E2.14866
G1 X108.213 Y109.803 E2.15624
G1 X108.308 Y109.393 E2.16464
G1 X108.379 Y109.223 E2.16831
G1 X108.6 Y108.873 E2.17658
G1 X108.873 Y108.599 E2.18429
G1 X109.04 Y108.48 E2.18839
G1 X109.412 Y108.303 E2.19661
G1 X109.811 Y108.212 E2.20477
G1 X110.197 Y108.213 E2.21248
G1 X110.607 Y108.308 E2.22088
G1 X110.777 Y108.379 E2.22455
G1 X111.127 Y108.6 E2.23281
G1 X111.401 Y108.873 E2.24053
G1 X111.52 Y109.04 E2.24462
G1 X111.697 Y109.411 E2.25283
G1 X111.788 Y109.808 E2.26096
G1 X111.798 Y109.993 E2.26465
G1 X111.751 Y110.41 E2.27303
G1 X111.621 Y110.777 E2.2808
G1 X111.4 Y111.127 E2.28906
G1 X111.127 Y111.401 E2.29678
G1 X110.96 Y111.52 E2.30087
G1 X110.588 Y111.697 E2.30909
G1 X110.189 Y111.788 E2.31726
G0 F6000 X110.247 Y112.185
;TYPE:WALL-OUTER
G1 F1200 X109.996 Y112.199 E2.32227
G1 X109.743 Y112.184 E2.32733
G1 X109.272 Y112.075 E2.33698
G1 X109.04 Y111.978 E2.342
G1 X108.628 Y111.718 E2.35172
G1 X108.438 Y111.547 E2.35682
G1 X108.28 Y111.37 E2.36155
G1 X108.134 Y111.163 E2.36661
G1 X108.018 Y110.953 E2.3714
G1 X107.923 Y110.721 E2.3764
G1 X107.814 Y110.241 E2.38622
G1 X107.801 Y109.993 E2.39118
G1 X107.816 Y109.742 E2.3962
G1 X107.925 Y109.272 E2.40583
G1 X108.022 Y109.04 E2.41084
G1 X108.282 Y108.628 E2.42057
G1 X108.453 Y108.438 E2.42567
G1 X108.63 Y108.28 E2.4304
G1 X108.837 Y108.134 E2.43546
G1 X109.278 Y107.923 E2.44521
G1 X109.753 Y107.815 E2.45493
G1 X110.004 Y107.801 E2.45995
G1 X110.257 Y107.816 E2.46501
G1 X110.728 Y107.925 E2.47466
G1 X110.96 Y108.022 E2.47967
G1 X111.372 Y108.282 E2.4894
G1 X111.562 Y108.453 E2.4945
G1 X111.72 Y108.63 E2.49923
G1 X111.866 Y108.837 E2.50429
G1 X112.077 Y109.278 E2.51404
G1 X112.185 Y109.748 E2.52367
G1 X112.199 Y110.004 E2.52878
G1 X112.144 Y110.492 E2.53858
G1 X112.075 Y110.728 E2.54349
G1 X111.978 Y110.96 E2.54851
G1 X111.718 Y111.372 E2.55823
G1 X111.547 Y111.562 E2.56333
G1 X111.37 Y111.72 E2.56807
G1 X111.163 Y111.866 E2.57312
G1 X110.722 Y112.077 E2.58288
G1 X110.247 Y112.185 E2.5926
G0 F6000 X110.186 Y111.75
G0 X109.896 Y110.997
;TYPE:SKIN
G1 F1200 X109.629 Y110.935 E2.59807
G1 X109.595 Y110.921 E2.5988
G1 X109.368 Y110.778 E2.60416
G1 X109.219 Y110.63 E2.60835
G1 X109.062 Y110.36 E2.61458
G1 X109.001 Y110.096 E2.61999
G1 X109.003 Y109.897 E2.62396
G1 X109.065 Y109.629 E2.62945
G1 X109.079 Y109.595 E2.63018
G1 X109.222 Y109.368 E2.63554
G1 X109.44 Y109.164 E2.6415
G1 X109.675 Y109.053 E2.64668
G1 X110.104 Y109.003 E2.6553
G1 X110.371 Y109.065 E2.66077
G1 X110.405 Y109.079 E2.6615
G1 X110.632 Y109.222 E2.66686
G1 X110.835 Y109.439 E2.67279
G1 X110.947 Y109.676 E2.67802
G1 X111.005 Y109.968 E2.68396
G1 X110.975 Y110.231 E2.68924
G1 X110.778 Y110.632 E2.69816
G1 X110.56 Y110.836 E2.70412
G1 X110.325 Y110.947 E2.7093
G1 X109.896 Y110.997 E2.71792
G0 F6000 X109.273 Y110.404
G1 F1200 X109.608 Y110.739 E2.72738
G0 F6000 X110.23 Y110.795
G1 F1200 X109.197 Y109.762 E2.75653
G0 F6000 X109.41 Y109.41
G1 F1200 X110.588 Y110.588 E2.78978
G0 F6000 X110.796 Y110.23
G1 F1200 X109.769 Y109.203 E2.81876
G0 F6000 X110.389 Y109.258
G1 F1200 X110.736 Y109.605 E2.82855
G0 F6000 X111.045 Y110.479
;TYPE:SKIN
G1 F1200 X111.107 Y110.542 E2.82944
G0 F6000 X111.403 Y110.73
G1 F2700 E-2.17056
;MESH:FingerBoltsV2.stl(2)
G0 F6000 X110.4 Y111.154
G0 X109.872 Y111.216
G0 X109.489 Y111.113
G0 X109.049 Y110.771
G0 X108.218 Y109.14
G0 X107.467 Y108.34
G0 X107.119 Y107.764
G0 X106.615 Y107.268
G0 X105.761 Y106.8
G0 X105.071 Y106.643
G0 X101.774 Y106.388
G0 X101.656 Y106.073
G0 X101.13 Y105.172
G1 F2700 E2.82944
G0 F6000 X101.244 Y105.286
;TYPE:WALL-OUTER
G1 F1200 X98.644 Y105.286 E2.88132
G1 X98.644 Y104.63 E2.89441
G1 X101.244 Y104.63 E2.9463
G1 X101.244 Y105.286 E2.95939
G0 F6000 X100.956 Y104.915
;TYPE:SKIN
G1 F1200 X100.714 Y104.956 E2.96352
G1 X99.017 Y104.956 E2.99204
G1 X98.853 Y105.075 E2.99544
G0 F6000 X99.144 Y104.786
G1 F2700 E-2.00456
;MESH:NONMESH
G0 F300 X99.144 Y104.786 Z0.24
G0 F6000 X99.144 Y104.83
G0 X101.13 Y104.744
G0 X102.873 Y104.167
;TIME_ELAPSED:17.549072
;LAYER:1
M106 S85
;TYPE:SUPPORT-INTERFACE
G1 F2700 E2.99544
G1 F876 X102.244 Y104.796 E3.0132
G0 F7500 X102.244 Y105.638
G1 F876 X102.351 Y105.745 E3.01622
G0 F7500 X104.689 Y105.745
G1 F876 X106.267 Y104.167 E3.06075
G0 F7500 X107.562 Y104.168
G1 F876 X109.139 Y105.745 E3.10526
G0 F7500 X108.083 Y105.745
G1 F876 X109.661 Y104.167 E3.14979
G0 F7500 X110.956 Y104.168
G1 F876 X112.533 Y105.745 E3.1943
G0 F7500 X111.477 Y105.745
G1 F876 X113.055 Y104.168 E3.23882
G0 F7500 X114.351 Y104.168
G1 F876 X115.928 Y105.745 E3.28332
G0 F7500 X114.871 Y105.745
G1 F876 X116.449 Y104.168 E3.32784
G0 F7500 X117.745 Y104.168
G1 F876 X119.322 Y105.745 E3.37235
G0 F7500 X118.265 Y105.745
G1 F876 X119.843 Y104.168 E3.41687
G0 F7500 X121.139 Y104.168
G1 F876 X121.443 Y104.472 E3.42545
G1 F2700 E-1.57455
G0 F7500 X122.109 Y104.472
G0 X122.105 Y105.903
G0 X121.601 Y106.407
G0 X105.745 Y106.411
G0 X105.745 Y105.745
G1 F2700 E3.42545
G1 F876 X104.168 Y104.168 E3.46996
G1 F2700 E-1.53004
;MESH:FingerBoltsV2.stl(1)
G0 F7500 X104.168 Y103.503
G0 X101.601 Y103.395
G0 X98.287 Y103.395
G0 X97.783 Y103.899
G0 X97.783 Y106.016
G0 X98.287 Y106.52
G0 X104.415 Y106.642
G0 X104.515 Y107.721
G0 X103.583 Y109.28
G0 X103.51 Y109.669
G0 X103.636 Y110.223
G0 X103.811 Y110.478
G0 X104.591 Y111.078
;TYPE:WALL-INNER
G1 F2700 E3.46996
G1 F876 X104.268 Y111.004 E3.47657
G1 X103.992 Y110.869 E3.4827
G1 X103.736 Y110.664 E3.48925
G1 X103.651 Y110.568 E3.49181
G1 X103.482 Y110.298 E3.49816
G1 X103.372 Y109.982 E3.50484
G1 X103.338 Y109.673 E3.51104
G1 X103.346 Y109.542 E3.51366
G1 X103.42 Y109.224 E3.52018
G1 X103.557 Y108.941 E3.52645
G1 X103.757 Y108.692 E3.53283
G1 X103.855 Y108.605 E3.53544
G1 X104.139 Y108.426 E3.54214
G1 X104.424 Y108.326 E3.54817
G1 X104.749 Y108.29 E3.55469
G1 X104.877 Y108.298 E3.55725
G1 X105.204 Y108.374 E3.56395
G1 X105.483 Y108.509 E3.57014
G1 X105.732 Y108.709 E3.57651
G1 X105.819 Y108.807 E3.57913
G1 X105.997 Y109.09 E3.5858
G1 X106.096 Y109.371 E3.59174
G1 X106.134 Y109.697 E3.59829
G1 X106.126 Y109.833 E3.60101
G1 X106.052 Y110.148 E3.60747
G1 X105.906 Y110.451 E3.61418
G1 X105.83 Y110.557 E3.61678
G1 X105.605 Y110.781 E3.62312
G1 X105.344 Y110.946 E3.62928
G1 X105.047 Y111.05 E3.63556
G1 X104.728 Y111.086 E3.64197
G1 X104.591 Y111.078 E3.64471
G0 F7500 X104.532 Y111.475
G1 F876 X104.135 Y111.384 E3.65283
G1 X103.777 Y111.209 E3.66079
G1 X103.461 Y110.956 E3.66887
G1 X103.329 Y110.807 E3.67284
G1 X103.118 Y110.47 E3.68077
G1 X102.979 Y110.071 E3.6892
G1 X102.937 Y109.687 E3.69691
G1 X102.949 Y109.48 E3.70105
G1 X103.04 Y109.09 E3.70904
G1 X103.216 Y108.728 E3.71708
G1 X103.468 Y108.413 E3.72513
G1 X103.615 Y108.283 E3.72904
G1 X103.962 Y108.065 E3.73722
G1 X104.337 Y107.933 E3.74515
G1 X104.734 Y107.889 E3.75312
G1 X104.938 Y107.901 E3.7572
G1 X105.339 Y107.994 E3.76542
G1 X105.696 Y108.168 E3.77334
G1 X106.011 Y108.42 E3.78139
G1 X106.141 Y108.567 E3.78531
G1 X106.359 Y108.914 E3.79349
G1 X106.488 Y109.28 E3.80123
G1 X106.535 Y109.686 E3.80939
G1 X106.523 Y109.89 E3.81347
G1 X106.431 Y110.283 E3.82152
G1 X106.251 Y110.656 E3.82979
G1 X106.137 Y110.815 E3.83369
G1 X105.856 Y111.095 E3.84161
G1 X105.518 Y111.308 E3.84958
G1 X105.138 Y111.442 E3.85762
G1 X104.738 Y111.487 E3.86565
G1 X104.532 Y111.475 E3.86977
G0 F7500 X104.472 Y111.872
;TYPE:WALL-OUTER
G1 F876 X104.015 Y111.767 E3.87913
G1 X103.777 Y111.668 E3.88427
G1 X103.556 Y111.544 E3.88933
G1 X103.182 Y111.245 E3.89888
G1 X103.009 Y111.049 E3.9041
G1 X102.754 Y110.642 E3.91369
G1 X102.591 Y110.175 E3.92356
G1 X102.551 Y109.94 E3.92831
G1 X102.537 Y109.688 E3.93335
G1 X102.552 Y109.424 E3.93863
G1 X102.66 Y108.962 E3.9481
G1 X102.754 Y108.735 E3.953
G1 X102.883 Y108.504 E3.95828
G1 X103.179 Y108.134 E3.96774
G1 X103.375 Y107.961 E3.97295
G1 X103.775 Y107.71 E3.98238
G1 X104.013 Y107.611 E3.98752
G1 X104.249 Y107.542 E3.99243
G1 X104.498 Y107.502 E3.99746
G1 X104.735 Y107.489 E4.0022
G1 X105 Y107.504 E4.00749
G1 X105.459 Y107.611 E4.0169
G1 X105.692 Y107.708 E4.02194
G1 X105.92 Y107.835 E4.02714
G1 X106.29 Y108.131 E4.0366
G1 X106.463 Y108.327 E4.04182
G1 X106.716 Y108.73 E4.05131
G1 X106.812 Y108.962 E4.05632
