;FLAVOR:Marlin
;TIME:2849
;Filament used: 0.475154m
;Layer height: 0.12
;MINX:101.203
;MINY:101.598
;MINZ:0.12
;MAXX:116.858
;MAXY:118.402
;MAXZ:23.04
;Generated with Cura_SteamEngine 4.12.1
M140 S55
M105
M190 S55
M104 S205
M105
M109 S205
M82 ;absolute extrusion mode
; Ender 3 Custom Start G-code
G92 E0 ; Reset Extruder
G28 ; Home all axes
G1 Z2.0 F3000 ; Move Z Axis up little to prevent scratching of Heat Bed
G1 X0.1 Y20 Z0.3 F5000.0 ; Move to start position
G1 X0.1 Y200.0 Z0.3 F1500.0 E15 ; Draw the first line
G1 X0.4 Y200.0 Z0.3 F5000.0 ; Move to side a little
G1 X0.4 Y20 Z0.3 F1500.0 E30 ; Draw the second line
G92 E0 ; Reset Extruder
G1 Z2.0 F3000 ; Move Z Axis up little to prevent scratching of Heat Bed
G1 X5 Y20 Z0.3 F5000.0 ; Move over to prevent blob squish
G92 E0
G92 E0
G1 F2700 E-5
;LAYER_COUNT:192
;LAYER:0
M107
;MESH:FingerBolts v1.stl(2)
G0 F6000 X107.759 Y105.379 Z0.12
;TYPE:WALL-INNER
G1 F2700 E0
G1 F1200 X107.441 Y105.297 E0.00655
G1 X107.145 Y105.147 E0.01318
G1 X106.893 Y104.937 E0.01972
G1 X106.697 Y104.687 E0.02606
G1 X106.55 Y104.374 E0.03296
G1 X106.48 Y104.062 E0.03934
G1 X106.479 Y103.737 E0.04583
G1 X106.55 Y103.42 E0.05231
G1 X106.696 Y103.11 E0.05915
G1 X106.896 Y102.853 E0.06565
G1 X107.145 Y102.647 E0.0721
G1 X107.442 Y102.496 E0.07875
G1 X107.768 Y102.413 E0.08546
G1 X107.916 Y102.401 E0.08842
G1 X108.247 Y102.427 E0.09505
G1 X108.573 Y102.528 E0.10186
G1 X108.842 Y102.682 E0.10805
G1 X109.098 Y102.918 E0.11499
G1 X109.283 Y103.184 E0.12146
G1 X109.408 Y103.491 E0.12807
G1 X109.462 Y103.817 E0.13467
G1 X109.445 Y104.141 E0.14114
G1 X109.354 Y104.46 E0.14776
G1 X109.195 Y104.753 E0.15442
G1 X108.976 Y105.003 E0.16105
G1 X108.718 Y105.192 E0.16743
G1 X108.419 Y105.324 E0.17395
G1 X108.098 Y105.388 E0.18049
G1 X107.759 Y105.379 E0.18725
G0 F6000 X107.705 Y105.778
G1 F1200 X107.297 Y105.673 E0.19566
G1 X106.926 Y105.485 E0.20396
G1 X106.604 Y105.217 E0.21232
G1 X106.353 Y104.895 E0.22047
G1 X106.17 Y104.508 E0.22901
G1 X106.08 Y104.105 E0.23725
G1 X106.079 Y103.695 E0.24543
G1 X106.17 Y103.286 E0.2538
G1 X106.353 Y102.899 E0.26234
G1 X106.605 Y102.575 E0.27053
G1 X106.926 Y102.309 E0.27885
G1 X107.297 Y102.121 E0.28715
G1 X107.707 Y102.016 E0.2956
G1 X107.914 Y101.999 E0.29974
G1 X108.323 Y102.031 E0.30793
G1 X108.734 Y102.159 E0.31652
G1 X109.082 Y102.359 E0.32453
G1 X109.401 Y102.652 E0.33317
G1 X109.635 Y102.99 E0.34138
G1 X109.796 Y103.385 E0.34989
G1 X109.864 Y103.791 E0.3581
G1 X109.841 Y104.21 E0.36648
G1 X109.727 Y104.611 E0.3748
G1 X109.525 Y104.984 E0.38326
G1 X109.249 Y105.299 E0.39162
G1 X108.918 Y105.541 E0.3998
G1 X108.543 Y105.707 E0.40799
G1 X108.13 Y105.789 E0.41639
G1 X107.705 Y105.778 E0.42487
G0 F6000 X107.902 Y106.196
;TYPE:WALL-OUTER
G1 F1200 X107.651 Y106.175 E0.4299
G1 X107.408 Y106.128 E0.43484
G1 X107.157 Y106.049 E0.44009
G1 X106.93 Y105.95 E0.44503
G1 X106.708 Y105.821 E0.45016
G1 X106.51 Y105.676 E0.45505
G1 X106.322 Y105.502 E0.46016
G1 X106.149 Y105.304 E0.46541
G1 X106.01 Y105.103 E0.47029
G1 X105.888 Y104.878 E0.4754
G1 X105.791 Y104.639 E0.48054
G1 X105.724 Y104.403 E0.48544
G1 X105.683 Y104.155 E0.49046
G1 X105.669 Y103.902 E0.49551
G1 X105.682 Y103.645 E0.50065
G1 X105.724 Y103.391 E0.50579
G1 X105.791 Y103.155 E0.51068
G1 X105.888 Y102.916 E0.51583
G1 X106.01 Y102.691 E0.52094
G1 X106.152 Y102.486 E0.52591
G1 X106.318 Y102.296 E0.53095
G1 X106.51 Y102.118 E0.53617
G1 X106.708 Y101.973 E0.54107
G1 X106.93 Y101.844 E0.54619
G1 X107.157 Y101.745 E0.55114
G1 X107.406 Y101.667 E0.55634
G1 X107.653 Y101.619 E0.56136
G1 X107.901 Y101.598 E0.56633
G1 X108.16 Y101.606 E0.5715
G1 X108.407 Y101.639 E0.57648
G1 X108.658 Y101.703 E0.58164
G1 X108.893 Y101.792 E0.58666
G1 X109.117 Y101.905 E0.59167
G1 X109.321 Y102.038 E0.59653
G1 X109.527 Y102.207 E0.60184
G1 X109.701 Y102.386 E0.60683
G1 X109.858 Y102.588 E0.61193
G1 X109.987 Y102.798 E0.61685
G1 X110.1 Y103.036 E0.62211
G1 X110.18 Y103.271 E0.62706
G1 X110.235 Y103.515 E0.63205
G1 X110.264 Y103.773 E0.63723
G1 X110.264 Y104.022 E0.6422
G1 X110.235 Y104.279 E0.64736
G1 X110.18 Y104.523 E0.65235
G1 X110.1 Y104.758 E0.65731
G1 X109.989 Y104.994 E0.66251
G1 X109.858 Y105.207 E0.6675
G1 X109.701 Y105.408 E0.67259
G1 X109.522 Y105.592 E0.67772
G1 X109.334 Y105.747 E0.68258
G1 X109.114 Y105.89 E0.68782
G1 X108.89 Y106.005 E0.69284
G1 X108.658 Y106.091 E0.69778
G1 X108.407 Y106.155 E0.70295
G1 X108.158 Y106.189 E0.70796
G1 X107.902 Y106.196 E0.71307
G0 F6000 X107.914 Y105.757
G0 X107.815 Y104.991
;TYPE:SKIN
G1 F1200 X107.577 Y104.929 E0.71798
G1 X107.362 Y104.82 E0.72279
G1 X107.032 Y104.484 E0.73219
G1 X106.92 Y104.245 E0.73746
G1 X106.87 Y104.021 E0.74204
G1 X106.869 Y103.776 E0.74693
G1 X106.92 Y103.55 E0.75155
G1 X107.03 Y103.317 E0.75669
G1 X107.179 Y103.125 E0.76154
G1 X107.362 Y102.974 E0.76628
G1 X107.578 Y102.864 E0.77111
G1 X107.837 Y102.798 E0.77645
G1 X107.916 Y102.791 E0.77803
G1 X108.173 Y102.811 E0.78317
G1 X108.414 Y102.886 E0.78821
G1 X108.608 Y102.997 E0.79267
G1 X108.804 Y103.178 E0.798
G1 X108.94 Y103.373 E0.80274
G1 X109.031 Y103.598 E0.80758
G1 X109.07 Y103.834 E0.81236
G1 X109.057 Y104.079 E0.81725
G1 X108.991 Y104.311 E0.82207
G1 X108.871 Y104.531 E0.82707
G1 X108.71 Y104.715 E0.83195
G1 X108.526 Y104.85 E0.8365
G1 X108.297 Y104.952 E0.8415
G1 X108.068 Y104.997 E0.84616
G1 X107.815 Y104.991 E0.85121
G0 F6000 X107.582 Y104.754
G1 F1200 X107.114 Y104.286 E0.86442
G0 F6000 X107.056 Y103.662
G1 F1200 X108.201 Y104.807 E0.89673
G0 F6000 X108.574 Y104.615
G1 F1200 X107.251 Y103.291 E0.93409
G0 F6000 X107.572 Y103.046
G1 F1200 X108.818 Y104.292 E0.96925
G0 F6000 X108.903 Y103.812
G1 F1200 X108.052 Y102.961 E0.99327
G0 F6000 X108.112 Y102.224
G1 F2700 E-4.00673
;MESH:FingerBolts v1.stl
G0 F6000 X108.968 Y103.03
G0 X109.243 Y103.537
G0 X109.275 Y104.113
G0 X108.589 Y105.882
G0 X109.264 Y108.055
G0 X108.71 Y109.703
G0 X108.709 Y110.293
G0 X108.955 Y110.811
G0 X109.204 Y111.018
G0 X109.973 Y111.497
;TYPE:WALL-INNER
G1 F2700 E0.99327
G1 F1200 X109.634 Y111.45 E1.0001
G1 X109.32 Y111.333 E1.00678
G1 X109.057 Y111.16 E1.01307
G1 X108.819 Y110.917 E1.01985
G1 X108.646 Y110.635 E1.02646
G1 X108.542 Y110.331 E1.03287
G1 X108.505 Y110.007 E1.03938
G1 X108.543 Y109.665 E1.04624
G1 X108.646 Y109.365 E1.05257
G1 X108.819 Y109.083 E1.05918
G1 X109.057 Y108.84 E1.06596
G1 X109.32 Y108.667 E1.07225
G1 X109.634 Y108.55 E1.07893
G1 X109.963 Y108.504 E1.08556
G1 X110.282 Y108.53 E1.09195
G1 X110.601 Y108.629 E1.09861
G1 X110.885 Y108.792 E1.10515
G1 X111.134 Y109.021 E1.1119
G1 X111.318 Y109.286 E1.11834
G1 X111.442 Y109.591 E1.12491
G1 X111.496 Y109.923 E1.13162
G1 X111.478 Y110.251 E1.13818
G1 X111.391 Y110.557 E1.14453
G1 X111.234 Y110.851 E1.15118
G1 X111.016 Y111.101 E1.1578
G1 X110.748 Y111.298 E1.16443
G1 X110.456 Y111.427 E1.1708
G1 X110.126 Y111.492 E1.17752
G1 X109.973 Y111.497 E1.18057
G0 F6000 X109.954 Y111.898
G1 F1200 X109.534 Y111.84 E1.18903
G1 X109.139 Y111.693 E1.19744
G1 X108.8 Y111.47 E1.20554
G1 X108.502 Y111.165 E1.21405
G1 X108.283 Y110.807 E1.22243
G1 X108.15 Y110.42 E1.23059
G1 X108.103 Y110.003 E1.23897
G1 X108.15 Y109.58 E1.24746
G1 X108.283 Y109.193 E1.25563
G1 X108.502 Y108.835 E1.264
G1 X108.8 Y108.53 E1.27251
G1 X109.139 Y108.307 E1.28061
G1 X109.534 Y108.16 E1.28902
G1 X109.954 Y108.102 E1.29748
G1 X110.357 Y108.134 E1.30555
G1 X110.762 Y108.26 E1.31401
G1 X111.122 Y108.467 E1.3223
G1 X111.437 Y108.756 E1.33083
G1 X111.672 Y109.096 E1.33908
G1 X111.83 Y109.482 E1.3474
G1 X111.898 Y109.9 E1.35585
G1 X111.874 Y110.32 E1.36425
G1 X111.764 Y110.709 E1.37231
G1 X111.567 Y111.077 E1.38064
G1 X111.288 Y111.397 E1.38912
G1 X110.95 Y111.646 E1.39749
G1 X110.578 Y111.81 E1.40561
G1 X110.168 Y111.891 E1.41395
G1 X109.954 Y111.898 E1.41822
G0 F6000 X109.935 Y112.299
;TYPE:WALL-OUTER
G1 F1200 X109.442 Y112.231 E1.42815
G1 X109.191 Y112.152 E1.4334
G1 X108.964 Y112.053 E1.43835
G1 X108.743 Y111.925 E1.44344
G1 X108.545 Y111.779 E1.44835
G1 X108.356 Y111.605 E1.45348
G1 X108.183 Y111.407 E1.45873
G1 X108.044 Y111.206 E1.4636
G1 X107.922 Y110.981 E1.46871
G1 X107.825 Y110.742 E1.47386
G1 X107.758 Y110.506 E1.47875
G1 X107.717 Y110.258 E1.48377
G1 X107.703 Y110.005 E1.48883
G1 X107.716 Y109.748 E1.49396
G1 X107.758 Y109.494 E1.4991
G1 X107.825 Y109.258 E1.50399
G1 X107.922 Y109.019 E1.50914
G1 X108.044 Y108.794 E1.51425
G1 X108.183 Y108.593 E1.51913
G1 X108.356 Y108.395 E1.52437
G1 X108.545 Y108.221 E1.5295
G1 X108.743 Y108.075 E1.53441
G1 X108.964 Y107.947 E1.53951
G1 X109.191 Y107.848 E1.54445
G1 X109.442 Y107.769 E1.5497
G1 X109.935 Y107.701 E1.55963
G1 X110.194 Y107.709 E1.5648
G1 X110.441 Y107.742 E1.56978
G1 X110.692 Y107.806 E1.57494
G1 X110.92 Y107.892 E1.57981
G1 X111.155 Y108.01 E1.58506
G1 X111.36 Y108.145 E1.58995
G1 X111.561 Y108.31 E1.59514
G1 X111.735 Y108.489 E1.60013
G1 X111.893 Y108.691 E1.60524
G1 X112.024 Y108.904 E1.61023
G1 X112.133 Y109.135 E1.61533
G1 X112.215 Y109.374 E1.62037
G1 X112.27 Y109.619 E1.62538
G1 X112.298 Y109.875 E1.63052
G1 X112.298 Y110.125 E1.63551
G1 X112.27 Y110.381 E1.64065
G1 X112.215 Y110.626 E1.64566
G1 X112.133 Y110.865 E1.6507
G1 X112.024 Y111.096 E1.6558
G1 X111.894 Y111.308 E1.66076
G1 X111.735 Y111.511 E1.66591
G1 X111.561 Y111.69 E1.67089
G1 X111.36 Y111.855 E1.67608
G1 X111.155 Y111.99 E1.68098
G1 X110.92 Y112.108 E1.68623
G1 X110.692 Y112.194 E1.69109
G1 X110.441 Y112.258 E1.69626
G1 X110.194 Y112.291 E1.70123
G1 X109.935 Y112.299 E1.7064
G0 F6000 X109.958 Y111.86
G0 X109.99 Y111.106
;TYPE:SKIN
G1 F1200 X109.73 Y111.07 E1.71164
G1 X109.498 Y110.983 E1.71659
G1 X109.307 Y110.858 E1.72114
G1 X109.128 Y110.675 E1.72625
G1 X109.001 Y110.467 E1.73111
G1 X108.926 Y110.248 E1.73573
G1 X108.898 Y110.006 E1.7406
G1 X108.927 Y109.751 E1.74572
G1 X109.002 Y109.53 E1.75037
G1 X109.127 Y109.327 E1.75513
G1 X109.307 Y109.142 E1.76028
G1 X109.498 Y109.017 E1.76484
G1 X109.731 Y108.93 E1.7698
G1 X109.976 Y108.896 E1.77474
G1 X110.203 Y108.914 E1.77928
G1 X110.444 Y108.989 E1.78432
G1 X110.654 Y109.109 E1.78915
G1 X110.838 Y109.279 E1.79414
G1 X110.974 Y109.474 E1.79889
G1 X111.064 Y109.696 E1.80367
G1 X111.104 Y109.941 E1.80862
G1 X111.09 Y110.188 E1.81356
G1 X111.026 Y110.412 E1.81821
G1 X110.911 Y110.628 E1.82309
G1 X110.75 Y110.812 E1.82797
G1 X110.552 Y110.958 E1.83288
G1 X110.336 Y111.053 E1.83759
G1 X110.086 Y111.102 E1.84267
G1 X109.99 Y111.106 E1.84459
G0 F6000 X109.783 Y110.914
G1 F1200 X109.084 Y110.216 E1.8643
G0 F6000 X109.117 Y109.683
G1 F1200 X110.319 Y110.884 E1.89821
G0 F6000 X110.665 Y110.665
G1 F1200 X109.337 Y109.337 E1.93569
G0 F6000 X109.683 Y109.117
G1 F1200 X110.886 Y110.32 E1.96964
G0 F6000 X110.917 Y109.786
G1 F1200 X110.217 Y109.086 E1.9894
G0 F6000 X110.436 Y108.379
G1 F2700 E-3.0106
;MESH:FingerBolts v1.stl(1)
G0 F6000 X111.166 Y109.365
G0 X111.324 Y109.93
G0 X111.232 Y110.492
G0 X110.964 Y110.882
G0 X109.492 Y112.017
G0 X108.702 Y114.158
G0 X109.258 Y115.814
G0 X109.256 Y116.396
G0 X109.008 Y116.917
G0 X108.756 Y117.124
G0 X108.009 Y117.599
;TYPE:WALL-INNER
G1 F2700 E1.9894
G1 F1200 X107.684 Y117.573 E1.99591
G1 X107.357 Y117.472 E2.00274
G1 X107.083 Y117.314 E2.00905
G1 X106.831 Y117.081 E2.0159
G1 X106.652 Y116.824 E2.02215
G1 X106.523 Y116.509 E2.02894
G1 X106.469 Y116.183 E2.03553
G1 X106.486 Y115.859 E2.04201
G1 X106.577 Y115.54 E2.04863
G1 X106.736 Y115.247 E2.05528
G1 X106.955 Y114.997 E2.06191
G1 X107.213 Y114.808 E2.0683
G1 X107.512 Y114.676 E2.07482
G1 X107.843 Y114.61 E2.08155
G1 X107.999 Y114.606 E2.08467
G1 X108.324 Y114.65 E2.09121
G1 X108.642 Y114.769 E2.09799
G1 X108.91 Y114.944 E2.10438
G1 X109.149 Y115.188 E2.11119
G1 X109.319 Y115.468 E2.11773
G1 X109.425 Y115.776 E2.12423
G1 X109.461 Y116.095 E2.13064
G1 X109.423 Y116.434 E2.13744
G1 X109.32 Y116.736 E2.14381
G1 X109.144 Y117.023 E2.15053
G1 X108.91 Y117.262 E2.1572
G1 X108.641 Y117.438 E2.16362
G1 X108.327 Y117.555 E2.17031
G1 X108.009 Y117.599 E2.17671
G0 F6000 X108.018 Y118.001
G1 F1200 X107.608 Y117.969 E2.18492
G1 X107.197 Y117.841 E2.19351
G1 X106.844 Y117.637 E2.20165
G1 X106.529 Y117.347 E2.21019
G1 X106.298 Y117.015 E2.21826
G1 X106.135 Y116.615 E2.22688
G1 X106.067 Y116.209 E2.2351
G1 X106.09 Y115.79 E2.24347
G1 X106.204 Y115.389 E2.25179
G1 X106.406 Y115.016 E2.26026
G1 X106.682 Y114.701 E2.26861
G1 X107.013 Y114.459 E2.2768
G1 X107.388 Y114.293 E2.28498
G1 X107.801 Y114.211 E2.29338
G1 X108.017 Y114.205 E2.2977
G1 X108.424 Y114.26 E2.30589
G1 X108.824 Y114.409 E2.31441
G1 X109.166 Y114.633 E2.32257
G1 X109.464 Y114.938 E2.33108
G1 X109.683 Y115.297 E2.33947
G1 X109.817 Y115.689 E2.34774
G1 X109.863 Y116.098 E2.35595
G1 X109.817 Y116.517 E2.36436
G1 X109.683 Y116.909 E2.37263
G1 X109.461 Y117.272 E2.38112
G1 X109.166 Y117.573 E2.38953
G1 X108.824 Y117.797 E2.39769
G1 X108.426 Y117.945 E2.40616
G1 X108.018 Y118.001 E2.41438
G0 F6000 X108.031 Y118.402
;TYPE:WALL-OUTER
G1 F1200 X107.771 Y118.394 E2.41957
G1 X107.524 Y118.361 E2.42455
G1 X107.273 Y118.297 E2.42972
G1 X107.038 Y118.208 E2.43473
G1 X106.814 Y118.095 E2.43974
G1 X106.609 Y117.961 E2.44462
G1 X106.404 Y117.793 E2.44991
G1 X106.23 Y117.614 E2.4549
G1 X106.071 Y117.41 E2.46006
G1 X105.944 Y117.202 E2.46492
G1 X105.831 Y116.964 E2.47018
G1 X105.751 Y116.729 E2.47513
G1 X105.696 Y116.485 E2.48012
G1 X105.667 Y116.227 E2.48531
G1 X105.667 Y115.978 E2.49027
G1 X105.696 Y115.721 E2.49544
G1 X105.751 Y115.477 E2.50043
G1 X105.831 Y115.242 E2.50538
G1 X105.942 Y115.006 E2.51059
G1 X106.073 Y114.793 E2.51558
G1 X106.23 Y114.592 E2.52067
G1 X106.409 Y114.408 E2.52579
G1 X106.597 Y114.253 E2.53065
G1 X106.817 Y114.11 E2.53589
G1 X107.041 Y113.995 E2.54091
G1 X107.273 Y113.909 E2.54585
G1 X107.524 Y113.845 E2.55102
G1 X107.773 Y113.811 E2.55603
G1 X108.03 Y113.804 E2.56116
G1 X108.28 Y113.825 E2.56617
G1 X108.523 Y113.872 E2.57111
G1 X108.774 Y113.951 E2.57636
G1 X109.002 Y114.05 E2.58132
G1 X109.223 Y114.178 E2.58642
G1 X109.421 Y114.324 E2.59133
G1 X109.61 Y114.498 E2.59645
G1 X109.783 Y114.696 E2.6017
G1 X109.922 Y114.897 E2.60658
G1 X110.045 Y115.124 E2.61173
G1 X110.139 Y115.357 E2.61674
G1 X110.207 Y115.597 E2.62172
G1 X110.249 Y115.846 E2.62676
G1 X110.263 Y116.098 E2.6318
G1 X110.25 Y116.354 E2.63691
G1 X110.207 Y116.609 E2.64207
G1 X110.139 Y116.849 E2.64705
G1 X110.045 Y117.082 E2.65207
G1 X109.922 Y117.309 E2.65722
G1 X109.78 Y117.514 E2.6622
G1 X109.615 Y117.704 E2.66722
G1 X109.421 Y117.882 E2.67247
G1 X109.223 Y118.028 E2.67738
G1 X109.002 Y118.156 E2.68248
G1 X108.774 Y118.255 E2.68744
G1 X108.525 Y118.333 E2.69265
G1 X108.278 Y118.381 E2.69767
G1 X108.031 Y118.402 E2.70261
G0 F6000 X108.02 Y117.963
G0 X108.23 Y117.175
;TYPE:SKIN
G1 F1200 X107.763 Y117.189 E2.71194
G1 X107.51 Y117.111 E2.71722
G1 X107.321 Y117.001 E2.72158
G1 X107.125 Y116.821 E2.72689
G1 X106.997 Y116.637 E2.73137
G1 X106.899 Y116.398 E2.73652
G1 X106.861 Y116.167 E2.74119
G1 X106.874 Y115.921 E2.74611
G1 X106.94 Y115.689 E2.75092
G1 X107.06 Y115.469 E2.75593
G1 X107.221 Y115.285 E2.7608
G1 X107.405 Y115.15 E2.76536
G1 X107.634 Y115.048 E2.77036
G1 X107.883 Y115 E2.77542
G1 X108.227 Y115.03 E2.78231
G1 X108.469 Y115.121 E2.78747
G1 X108.656 Y115.243 E2.79193
G1 X108.839 Y115.429 E2.79714
G1 X108.963 Y115.635 E2.80193
G1 X109.041 Y115.862 E2.80672
G1 X109.068 Y116.095 E2.8114
G1 X109.039 Y116.351 E2.81655
G1 X108.965 Y116.568 E2.82112
G1 X108.835 Y116.781 E2.8261
G1 X108.66 Y116.96 E2.8311
G1 X108.464 Y117.088 E2.83577
G1 X108.23 Y117.175 E2.84075
G0 F6000 X108.267 Y117.452
G0 X107.72 Y117.405
G0 X107.186 Y117.176
G0 X106.842 Y116.787
G0 X106.587 Y116.053
G0 X107.026 Y116.077
G1 F1200 X107.97 Y117.021 E2.86739
G0 F6000 X108.431 Y116.917
G1 F1200 X107.15 Y115.636 E2.90354
G0 F6000 X107.418 Y115.338
G1 F1200 X108.728 Y116.647 E2.9405
G0 F6000 X108.889 Y116.243
G1 F1200 X107.82 Y115.174 E2.97067
G0 F6000 X107.735 Y114.744
G0 X107.071 Y115.123
G0 X106.736 Y115.606
G0 X106.641 Y116.176
G0 X106.803 Y116.743
G0 X107.186 Y117.176
G0 X107.488 Y117.305
G0 X108.038 Y117.484
G0 X108.022 Y117.356
;TYPE:SKIN
G1 F1200 X108.05 Y117.384 E2.97107
G0 F6000 X108.104 Y117.779
G1 F2700 E-2.02893
;MESH:FingerBolts v1.stl(3)
