;FLAVOR:Marlin
;TIME:313
;Filament used: 0.0660997m
;Layer height: 0.12
;MINX:107.803
;MINY:98.7
;MINZ:0.12
;MAXX:112.197
;MAXY:121.3
;MAXZ:4.8
;Generated with Cura_SteamEngine 4.12.1
M140 S55
M105
M190 S55
M104 S205
M105
M109 S205
M82 ;absolute extrusion mode
; Ender 3 Custom Start G-code
G92 E0 ; Reset Extruder
G28 ; Home all axes
G1 Z2.0 F3000 ; Move Z Axis up little to prevent scratching of Heat Bed
G1 X0.1 Y20 Z0.3 F5000.0 ; Move to start position
G1 X0.1 Y200.0 Z0.3 F1500.0 E15 ; Draw the first line
G1 X0.4 Y200.0 Z0.3 F5000.0 ; Move to side a little
G1 X0.4 Y20 Z0.3 F1500.0 E30 ; Draw the second line
G92 E0 ; Reset Extruder
G1 Z2.0 F3000 ; Move Z Axis up little to prevent scratching of Heat Bed
G1 X5 Y20 Z0.3 F5000.0 ; Move over to prevent blob squish
G92 E0
G92 E0
G1 F2700 E-5
;LAYER_COUNT:40
;LAYER:0
M107
G0 F6000 X109.427 Y98.7 Z0.12
;TYPE:SUPPORT-INTERFACE
G1 F2700 E0
G1 F600 X110.573 Y98.7 E0.02287
G1 X110.573 Y117.5 E0.39804
G1 X109.426 Y117.5 E0.42093
G1 X109.427 Y98.7 E0.79611
G0 F6000 X109.625 Y99.443
G1 F600 X110.373 Y100.19 E0.8172
G0 F6000 X110.372 Y100.062
G1 F600 X109.626 Y100.808 E0.83826
G0 F6000 X109.625 Y102.837
G1 F600 X110.373 Y103.584 E0.85935
G0 F6000 X110.372 Y103.456
G1 F600 X109.626 Y104.202 E0.88041
G0 F6000 X109.625 Y106.231
G1 F600 X110.373 Y106.978 E0.9015
G0 F6000 X110.372 Y106.85
G1 F600 X109.626 Y107.596 E0.92256
G0 F6000 X109.625 Y109.625
G1 F600 X110.373 Y110.373 E0.94367
G0 F6000 X110.372 Y110.245
G1 F600 X109.626 Y110.991 E0.96472
G0 F6000 X109.625 Y113.019
G1 F600 X110.373 Y113.767 E0.98583
G0 F6000 X110.372 Y113.639
G1 F600 X109.626 Y114.385 E1.00689
G0 F6000 X109.625 Y116.413
G1 F600 X110.373 Y117.161 E1.028
G0 F6000 X110.372 Y117.033
G1 F600 X110.105 Y117.299 E1.03552
G1 F2700 E-3.96448
;MESH:FingerBoltsV2.stl
G0 F6000 X110.105 Y118.82
G0 X110.128 Y121.13
G1 F2700 E1.03552
G0 F6000 X110.328 Y121.3
;TYPE:WALL-OUTER
G1 F600 X109.672 Y121.3 E1.04861
G1 X109.672 Y118.7 E1.10049
G1 X110.328 Y118.7 E1.11358
G1 X110.328 Y121.3 E1.16547
G0 F6000 X109.969 Y121
;TYPE:SKIN
G1 F600 X109.999 Y120.747 E1.16976
G1 X109.999 Y119.05 E1.19833
G1 X110.129 Y118.897 E1.20171
G0 F6000 X109.828 Y119.2
G1 F2700 E-3.79829
;MESH:NONMESH
G0 F300 X109.828 Y119.2 Z0.24
G0 F6000 X109.872 Y119.2
G0 X109.786 Y118.814
G0 X108.883 Y118.29
G0 X108.6 Y118.184
G0 X108.561 Y99.027
G0 X109.209 Y99.027
;TIME_ELAPSED:12.710890
;LAYER:1
M106 S85
;TYPE:SUPPORT-INTERFACE
G1 F2700 E1.20171
G1 F600 X110.788 Y100.606 E1.24628
G0 F7500 X110.788 Y99.646
G1 F600 X109.21 Y101.224 E1.29081
G0 F7500 X109.209 Y102.421
G1 F600 X110.788 Y104 E1.33537
G0 F7500 X110.788 Y103.041
G1 F600 X109.21 Y104.618 E1.37989
G0 F7500 X109.209 Y105.815
G1 F600 X110.788 Y107.394 E1.42446
G0 F7500 X110.788 Y106.435
G1 F600 X109.21 Y108.012 E1.46898
G0 F7500 X109.209 Y109.209
G1 F600 X110.789 Y110.789 E1.51357
G0 F7500 X110.788 Y109.828
G1 F600 X109.21 Y111.406 E1.5581
G0 F7500 X109.209 Y112.603
G1 F600 X110.789 Y114.183 E1.60269
G0 F7500 X110.788 Y113.222
G1 F600 X109.21 Y114.8 E1.64723
G0 F7500 X109.209 Y115.998
G1 F600 X110.789 Y117.577 E1.6918
G0 F7500 X110.788 Y116.616
G1 F600 X109.706 Y117.699 E1.72236
G1 F2700 E-3.27764
;MESH:FingerBoltsV2.stl
G0 F7500 X109.706 Y118.92
G0 X110.301 Y120.9
;TYPE:WALL-INNER
G1 F2700 E1.72236
G1 F600 X109.699 Y120.9 E1.73437
G1 X109.699 Y119.1 E1.77029
G1 X110.301 Y119.1 E1.7823
G1 X110.301 Y120.9 E1.81822
G0 F7500 X110.701 Y121.3
;TYPE:WALL-OUTER
G1 F600 X109.299 Y121.3 E1.8462
G1 X109.299 Y118.7 E1.89809
G1 X110.701 Y118.7 E1.92607
G1 X110.701 Y121.3 E1.97795
G0 F7500 X110.1 Y120.698
;TYPE:SKIN
G1 F600 X110 Y120.516 E1.98081
G1 X109.992 Y119.392 E1.9963
G0 F7500 X110.101 Y119.3
G1 F2700 E-3.0037
;MESH:NONMESH
G0 F300 X110.101 Y119.3 Z0.36
G0 F7500 X109.513 Y118.914
G0 X108.549 Y118.232
G0 X108.545 Y99.027
G0 X109.209 Y99.027
;TIME_ELAPSED:19.288488
;LAYER:2
M106 S170
;TYPE:SUPPORT-INTERFACE
G1 F2700 E1.9963
G1 F600 X110.788 Y100.606 E2.04086
G0 F9000 X110.788 Y99.646
G1 F600 X109.21 Y101.224 E2.0854
G0 F9000 X109.209 Y102.421
G1 F600 X110.788 Y104 E2.12996
G0 F9000 X110.788 Y103.041
G1 F600 X109.21 Y104.618 E2.17448
G0 F9000 X109.209 Y105.815
G1 F600 X110.788 Y107.394 E2.21904
G0 F9000 X110.788 Y106.435
G1 F600 X109.21 Y108.012 E2.26356
G0 F9000 X109.209 Y109.209
G1 F600 X110.789 Y110.789 E2.30815
G0 F9000 X110.788 Y109.828
G1 F600 X109.21 Y111.406 E2.35269
G0 F9000 X109.209 Y112.603
G1 F600 X110.789 Y114.183 E2.39728
G0 F9000 X110.788 Y113.222
G1 F600 X109.21 Y114.8 E2.44181
G0 F9000 X109.209 Y115.998
G1 F600 X110.789 Y117.577 E2.48639
G0 F9000 X110.788 Y116.616
G1 F600 X109.706 Y117.699 E2.51694
G1 F2700 E-2.48306
;MESH:FingerBoltsV2.stl
G0 F9000 X109.706 Y118.92
G0 X110.153 Y120.5
;TYPE:WALL-INNER
G1 F2700 E2.51694
G1 F600 X109.847 Y120.5 E2.52305
G1 X109.847 Y119.5 E2.543
G1 X110.153 Y119.5 E2.54911
G1 X110.153 Y120.5 E2.56441
G0 F9000 X110.553 Y120.9
G1 F600 X109.447 Y120.9 E2.58649
G1 X109.447 Y119.1 E2.62241
G1 X110.553 Y119.1 E2.64448
G1 X110.553 Y120.9 E2.6804
G0 F9000 X110.953 Y121.3
;TYPE:WALL-OUTER
G1 F600 X109.047 Y121.3 E2.71844
G1 X109.047 Y118.7 E2.77032
G1 X110.953 Y118.7 E2.80836
G1 X110.953 Y121.3 E2.86024
G0 F9000 X110.353 Y120.818
G1 F2700 E-2.13976
;MESH:NONMESH
G0 F300 X110.353 Y120.818 Z0.48
G0 F9000 X109.261 Y118.914
G0 X108.549 Y117.98
G0 X108.545 Y99.027
G0 X109.209 Y99.027
;TIME_ELAPSED:26.247503
;LAYER:3
M106 S255
;TYPE:SUPPORT-INTERFACE
G1 F2700 E2.86024
G1 F600 X110.788 Y100.606 E2.90481
G0 F9000 X110.788 Y99.646
G1 F600 X109.21 Y101.224 E2.94934
G0 F9000 X109.209 Y102.421
G1 F600 X110.788 Y104 E2.9939
G0 F9000 X110.788 Y103.041
G1 F600 X109.21 Y104.618 E3.03842
G0 F9000 X109.209 Y105.815
G1 F600 X110.788 Y107.394 E3.08299
G0 F9000 X110.788 Y106.435
G1 F600 X109.21 Y108.012 E3.12751
G0 F9000 X109.209 Y109.209
G1 F600 X110.789 Y110.789 E3.1721
G0 F9000 X110.788 Y109.828
G1 F600 X109.21 Y111.406 E3.21663
G0 F9000 X109.209 Y112.603
G1 F600 X110.789 Y114.183 E3.26122
G0 F9000 X110.788 Y113.222
G1 F600 X109.21 Y114.8 E3.30576
G0 F9000 X109.209 Y115.998
G1 F600 X110.789 Y117.577 E3.35034
G0 F9000 X110.788 Y116.616
G1 F600 X109.706 Y117.699 E3.38089
G1 F2700 E-1.61911
;MESH:FingerBoltsV2.stl
G0 F9000 X109.706 Y118.92
G0 X110.121 Y119.605
G0 X110.35 Y120.5
;TYPE:WALL-INNER
G1 F2700 E3.38089
G1 F600 X109.65 Y120.5 E3.39486
G1 X109.65 Y119.5 E3.41481
G1 X110.35 Y119.5 E3.42878
G1 X110.35 Y120.5 E3.44874
G0 F9000 X110.75 Y120.9
G1 F600 X109.25 Y120.9 E3.47867
G1 X109.25 Y119.1 E3.51459
G1 X110.75 Y119.1 E3.54453
G1 X110.75 Y120.9 E3.58045
G0 F9000 X111.15 Y121.3
;TYPE:WALL-OUTER
G1 F600 X108.85 Y121.3 E3.62635
G1 X108.85 Y118.7 E3.67823
G1 X111.15 Y118.7 E3.72413
G1 X111.15 Y121.3 E3.77602
G0 F9000 X110.88 Y121.03
G0 X109.894 Y120.39
G0 X109.894 Y120.339
;TYPE:SKIN
G1 F600 X110.189 Y120.044 E3.78434
G0 F9000 X109.81 Y119.858
G1 F600 X110.008 Y119.659 E3.78994
G0 F9000 X110.008 Y119.31
G1 F2700 E-1.21006
;MESH:NONMESH
G0 F300 X110.008 Y119.31 Z0.6
G0 F9000 X109.209 Y118.92
G0 X108.557 Y117.847
G0 X108.545 Y99.027
G0 X109.209 Y99.027
;TIME_ELAPSED:33.631164
;LAYER:4
;TYPE:SUPPORT-INTERFACE
G1 F2700 E3.78994
G1 F600 X110.788 Y100.606 E3.83451
G0 F9000 X110.788 Y99.646
G1 F600 X109.21 Y101.224 E3.87904
G0 F9000 X109.209 Y102.421
G1 F600 X110.788 Y104 E3.9236
G0 F9000 X110.788 Y103.041
G1 F600 X109.21 Y104.618 E3.96812
G0 F9000 X109.209 Y105.815
G1 F600 X110.788 Y107.394 E4.01269
G0 F9000 X110.788 Y106.435
G1 F600 X109.21 Y108.012 E4.05721
G0 F9000 X109.209 Y109.209
G1 F600 X110.789 Y110.789 E4.1018
G0 F9000 X110.788 Y109.828
G1 F600 X109.21 Y111.406 E4.14633
G0 F9000 X109.209 Y112.603
G1 F600 X110.789 Y114.183 E4.19092
G0 F9000 X110.788 Y113.222
G1 F600 X109.21 Y114.8 E4.23546
G0 F9000 X109.209 Y115.998
G1 F600 X110.789 Y117.577 E4.28004
G0 F9000 X110.788 Y116.616
G1 F600 X109.706 Y117.699 E4.31059
G1 F2700 E-0.68941
;MESH:FingerBoltsV2.stl
G0 F9000 X109.706 Y118.92
G0 X110.332 Y119.682
G0 X110.514 Y120.5
;TYPE:WALL-INNER
G1 F2700 E4.31059
G1 F600 X109.486 Y120.5 E4.3311
G1 X109.486 Y119.5 E4.35106
G1 X110.514 Y119.5 E4.37157
G1 X110.514 Y120.5 E4.39153
G0 F9000 X110.914 Y120.9
G1 F600 X109.086 Y120.9 E4.42801
G1 X109.086 Y119.1 E4.46393
G1 X110.914 Y119.1 E4.50041
G1 X110.914 Y120.9 E4.53633
G0 F9000 X111.314 Y121.3
;TYPE:WALL-OUTER
G1 F600 X108.686 Y121.3 E4.58877
G1 X108.686 Y118.7 E4.64066
G1 X111.314 Y118.7 E4.6931
G1 X111.314 Y121.3 E4.74499
G0 F9000 X111.044 Y121.03
G0 X110.404 Y120.11
G0 X110.124 Y120.11
;TYPE:SKIN
G1 F600 X109.876 Y120.11 E4.74994
G1 X109.876 Y119.89 E4.75433
G1 X110.124 Y119.89 E4.75928
G1 X110.124 Y120.11 E4.76367
G0 F9000 X110.124 Y120.69
G1 F2700 E-0.23633
;MESH:NONMESH
G0 F300 X110.124 Y120.69 Z0.72
G0 F9000 X109.714 Y120.356
G0 X109.209 Y118.92
G0 X108.557 Y117.847
G0 X108.545 Y99.027
G0 X109.209 Y99.027
;TIME_ELAPSED:41.254244
;LAYER:5
;TYPE:SUPPORT-INTERFACE
G1 F2700 E4.76367
G1 F600 X110.788 Y100.606 E4.80823
G0 F9000 X110.788 Y99.646
G1 F600 X109.21 Y101.224 E4.85277
G0 F9000 X109.209 Y102.421
G1 F600 X110.788 Y104 E4.89733
G0 F9000 X110.788 Y103.041
G1 F600 X109.21 Y104.618 E4.94185
G0 F9000 X109.209 Y105.815
G1 F600 X110.788 Y107.394 E4.98641
G0 F9000 X110.788 Y106.435
G1 F600 X109.21 Y108.012 E5.03093
G0 F9000 X109.209 Y109.209
G1 F600 X110.789 Y110.789 E5.07552
G0 F9000 X110.788 Y109.828
G1 F600 X109.21 Y111.406 E5.12006
G0 F9000 X109.209 Y112.603
G1 F600 X110.789 Y114.183 E5.16465
G0 F9000 X110.788 Y113.222
G1 F600 X109.21 Y114.8 E5.20918
G0 F9000 X109.209 Y115.998
G1 F600 X110.789 Y117.577 E5.25376
G0 F9000 X110.788 Y116.616
G1 F600 X109.706 Y117.699 E5.28431
G1 F2700 E0.28431
;MESH:FingerBoltsV2.stl
G0 F9000 X109.706 Y118.92
G0 X110.466 Y119.682
G0 X110.648 Y120.5
;TYPE:WALL-INNER
G1 F2700 E5.28431
G1 F600 X109.352 Y120.5 E5.31017
G1 X109.352 Y119.5 E5.33013
G1 X110.648 Y119.5 E5.35599
G1 X110.648 Y120.5 E5.37595
G0 F9000 X111.048 Y120.9
G1 F600 X108.952 Y120.9 E5.41778
G1 X108.952 Y119.1 E5.4537
G1 X111.048 Y119.1 E5.49553
G1 X111.048 Y120.9 E5.53145
G0 F9000 X111.448 Y121.3
;TYPE:WALL-OUTER
G1 F600 X108.552 Y121.3 E5.58924
G1 X108.552 Y118.7 E5.64113
G1 X111.448 Y118.7 E5.69892
G1 X111.448 Y121.3 E5.75081
G0 F9000 X111.178 Y121.03
G0 X110.538 Y120.11
G0 X110.258 Y120.11
;TYPE:SKIN
G1 F600 X109.742 Y120.11 E5.7611
G1 X109.742 Y119.89 E5.76549
G1 X110.258 Y119.89 E5.77579
G1 X110.258 Y120.11 E5.78018
G0 F9000 X110.258 Y120.69
G1 F2700 E0.78018
;MESH:NONMESH
G0 F300 X110.258 Y120.69 Z0.84
G0 F9000 X109.534 Y120.318
G0 X109.209 Y118.92
G0 X108.557 Y117.847
G0 X108.545 Y99.027
G0 X109.209 Y99.027
;TIME_ELAPSED:49.127158
;LAYER:6
;TYPE:SUPPORT-INTERFACE
G1 F2700 E5.78018
G1 F600 X110.788 Y100.606 E5.82474
G0 F9000 X110.788 Y99.646
G1 F600 X109.21 Y101.224 E5.86928
G0 F9000 X109.209 Y102.421
G1 F600 X110.788 Y104 E5.91384
G0 F9000 X110.788 Y103.041
G1 F600 X109.21 Y104.618 E5.95836
G0 F9000 X109.209 Y105.815
G1 F600 X110.788 Y107.394 E6.00292
G0 F9000 X110.788 Y106.435
G1 F600 X109.21 Y108.012 E6.04744
G0 F9000 X109.209 Y109.209
G1 F600 X110.789 Y110.789 E6.09204
G0 F9000 X110.788 Y109.828
G1 F600 X109.21 Y111.406 E6.13657
G0 F9000 X109.209 Y112.603
G1 F600 X110.789 Y114.183 E6.18116
G0 F9000 X110.788 Y113.222
G1 F600 X109.21 Y114.8 E6.2257
G0 F9000 X109.209 Y115.998
G1 F600 X110.789 Y117.577 E6.27027
G0 F9000 X110.788 Y116.616
G1 F600 X109.706 Y117.699 E6.30082
G1 F2700 E1.30082
;MESH:FingerBoltsV2.stl
G0 F9000 X109.706 Y118.92
G0 X110.583 Y119.682
G0 X110.765 Y120.5
;TYPE:WALL-INNER
G1 F2700 E6.30082
G1 F600 X109.235 Y120.5 E6.33136
G1 X109.235 Y119.5 E6.35131
G1 X110.765 Y119.5 E6.38184
G1 X110.765 Y120.5 E6.4018
G0 F9000 X111.165 Y120.9
G1 F600 X108.835 Y120.9 E6.4483
G1 X108.835 Y119.1 E6.48422
G1 X111.165 Y119.1 E6.53072
G1 X111.165 Y120.9 E6.56664
G0 F9000 X111.565 Y121.3
;TYPE:WALL-OUTER
G1 F600 X108.435 Y121.3 E6.6291
G1 X108.435 Y118.7 E6.68099
G1 X111.565 Y118.7 E6.74345
G1 X111.565 Y121.3 E6.79533
G0 F9000 X111.295 Y121.03
G0 X110.655 Y120.11
G0 X110.375 Y120.11
;TYPE:SKIN
G1 F600 X109.625 Y120.11 E6.8103
G1 X109.625 Y119.89 E6.81469
G1 X110.375 Y119.89 E6.82966
G1 X110.375 Y120.11 E6.83405
G0 F9000 X110.375 Y120.69
G1 F2700 E1.83405
;MESH:NONMESH
G0 F300 X110.375 Y120.69 Z0.96
G0 F9000 X109.417 Y120.318
G0 X109.209 Y118.92
G0 X108.557 Y117.847
G0 X108.545 Y99.027
G0 X109.209 Y99.027
;TIME_ELAPSED:57.213049
;LAYER:7
;TYPE:SUPPORT-INTERFACE
G1 F2700 E6.83405
G1 F600 X110.788 Y100.606 E6.87861
G0 F9000 X110.788 Y99.646
G1 F600 X109.21 Y101.224 E6.92315
G0 F9000 X109.209 Y102.421
G1 F600 X110.788 Y104 E6.96771
G0 F9000 X110.788 Y103.041
G1 F600 X109.21 Y104.618 E7.01223
G0 F9000 X109.209 Y105.815
G1 F600 X110.788 Y107.394 E7.05679
G0 F9000 X110.788 Y106.435
G1 F600 X109.21 Y108.012 E7.10131
G0 F9000 X109.209 Y109.209
G1 F600 X110.789 Y110.789 E7.1459
G0 F9000 X110.788 Y109.828
G1 F600 X109.21 Y111.406 E7.19044
G0 F9000 X109.209 Y112.603
G1 F600 X110.789 Y114.183 E7.23503
G0 F9000 X110.788 Y113.222
G1 F600 X109.21 Y114.8 E7.27956
G0 F9000 X109.209 Y115.998
G1 F600 X110.789 Y117.577 E7.32414
G0 F9000 X110.788 Y116.616
G1 F600 X109.706 Y117.699 E7.35469
G1 F2700 E2.35469
;MESH:FingerBoltsV2.stl
G0 F9000 X109.706 Y118.92
G0 X110.872 Y120.5
;TYPE:WALL-INNER
G1 F2700 E7.35469
G1 F600 X109.128 Y120.5 E7.3895
G1 X109.128 Y119.5 E7.40945
G1 X110.872 Y119.5 E7.44425
G1 X110.872 Y120.5 E7.46421
G0 F9000 X111.272 Y120.9
G1 F600 X108.728 Y120.9 E7.51498
G1 X108.728 Y119.1 E7.5509
G1 X111.272 Y119.1 E7.60167
G1 X111.272 Y120.9 E7.63759
G0 F9000 X111.672 Y121.3
;TYPE:WALL-OUTER
G1 F600 X108.328 Y121.3 E7.70432
G1 X108.328 Y118.7 E7.75621
G1 X111.672 Y118.7 E7.82294
G1 X111.672 Y121.3 E7.87483
G0 F9000 X111.402 Y121.03
G0 X110.791 Y119.806
;TYPE:FILL
G1 F1200 X109.207 Y120.23 E7.90755
G0 F9000 X109.611 Y120.419
G1 F1200 X109.836 Y119.579 E7.9249
G1 F2700 E2.9249
;MESH:NONMESH
G0 F300 X109.836 Y119.579 Z1.08
G0 F9000 X109.411 Y118.92
G0 X108.557 Y117.847
G0 X108.545 Y98.7
G0 X109.411 Y98.7
;TIME_ELAPSED:65.304322
;LAYER:8
;TYPE:SUPPORT
G1 F2700 E7.9249
G1 F650.4 X109.427 Y98.7 E7.92522
G1 X109.426 Y117.5 E8.3004
G1 X109.41 Y117.5 E8.30072
G1 X109.411 Y98.7 E8.67589
G0 F9000 X110.573 Y98.7
G1 F650.4 X110.589 Y98.7 E8.67621
G1 X110.589 Y117.5 E9.05139
G1 X110.573 Y117.5 E9.0517
G1 X110.573 Y98.7 E9.42688
G1 F2700 E4.42688
;MESH:FingerBoltsV2.stl
G0 F9000 X111.454 Y98.7
G0 X111.442 Y117.847
G0 X110.573 Y118.92
G0 X110.958 Y120.5
;TYPE:WALL-INNER
G1 F2700 E9.42688
G1 F650.4 X109.042 Y120.5 E9.46511
G1 X109.042 Y119.5 E9.48507
G1 X110.958 Y119.5 E9.52331
G1 X110.958 Y120.5 E9.54326
G0 F9000 X111.358 Y120.9
G1 F650.4 X108.642 Y120.9 E9.59746
G1 X108.642 Y119.1 E9.63338
G1 X111.358 Y119.1 E9.68759
G1 X111.358 Y120.9 E9.72351
G0 F9000 X111.758 Y121.3
;TYPE:WALL-OUTER
G1 F650.4 X108.242 Y121.3 E9.79367
G1 X108.242 Y118.7 E9.84556
G1 X111.758 Y118.7 E9.91572
G1 X111.758 Y121.3 E9.96761
G0 F9000 X111.488 Y121.03
G0 X110.877 Y119.871
;TYPE:FILL
G1 F1300.8 X109.121 Y120.341 E10.00389
G0 F9000 X109.522 Y120.419
G1 F1300.8 X109.748 Y119.579 E10.02124
;MESH:NONMESH
G0 F300 X109.748 Y119.579 Z1.2
G0 F9000 X111.041 Y120.5
;TIME_ELAPSED:76.608836
;LAYER:9
;TYPE:WALL-INNER
;MESH:FingerBoltsV2.stl
G1 F600 X108.959 Y120.5 E10.06279
G1 X108.959 Y119.5 E10.08275
G1 X111.041 Y119.5 E10.1243
G1 X111.041 Y120.5 E10.14425
G0 F9000 X111.441 Y120.9
G1 F600 X108.559 Y120.9 E10.20177
G1 X108.559 Y119.1 E10.23769
G1 X111.441 Y119.1 E10.2952
G1 X111.441 Y120.9 E10.33112
G0 F9000 X111.841 Y121.3
;TYPE:WALL-OUTER
G1 F600 X108.159 Y121.3 E10.4046
G1 X108.159 Y118.7 E10.45649
G1 X111.841 Y118.7 E10.52996
G1 X111.841 Y121.3 E10.58185
G0 F9000 X111.571 Y121.03
G0 X110.959 Y119.937
;TYPE:FILL
G1 F1200 X109.157 Y120.42 E10.61908
G0 F9000 X109.434 Y120.42
G1 F1200 X109.66 Y119.579 E10.63646
;MESH:NONMESH
G0 F300 X109.66 Y119.579 Z1.32
G0 F9000 X111.507 Y119.1
;TIME_ELAPSED:80.042254
;LAYER:10
;TYPE:WALL-INNER
;MESH:FingerBoltsV2.stl
G1 F600 X111.507 Y120.9 E10.67238
G1 X108.493 Y120.9 E10.73253
G1 X108.493 Y119.1 E10.76845
G1 X111.507 Y119.1 E10.8286
G0 F9000 X111.107 Y119.5
G1 F600 X111.107 Y120.5 E10.84855
G1 X108.893 Y120.5 E10.89274
G1 X108.893 Y119.5 E10.91269
