;FLAVOR:Marlin
;TIME:368
;Filament used: 0.0571516m
;Layer height: 0.12
;MINX:107.802
;MINY:107.802
;MINZ:0.12
;MAXX:112.198
;MAXY:112.198
;MAXZ:23.04
;Generated with Cura_SteamEngine 4.12.1
M140 S55
M105
M190 S55
M104 S205
M105
M109 S205
M82 ;absolute extrusion mode
; Ender 3 Custom Start G-code
G92 E0 ; Reset Extruder
G28 ; Home all axes
G1 Z2.0 F3000 ; Move Z Axis up little to prevent scratching of Heat Bed
G1 X0.1 Y20 Z0.3 F5000.0 ; Move to start position
G1 X0.1 Y200.0 Z0.3 F1500.0 E15 ; Draw the first line
G1 X0.4 Y200.0 Z0.3 F5000.0 ; Move to side a little
G1 X0.4 Y20 Z0.3 F1500.0 E30 ; Draw the second line
G92 E0 ; Reset Extruder
G1 Z2.0 F3000 ; Move Z Axis up little to prevent scratching of Heat Bed
G1 X5 Y20 Z0.3 F5000.0 ; Move over to prevent blob squish
G92 E0
G92 E0
G1 F2700 E-5
;LAYER_COUNT:192
;LAYER:0
M107
;MESH:FingerBoltsV2.stl
G0 F6000 X109.904 Y111.392 Z0.12
;TYPE:WALL-INNER
G1 F2700 E0
G1 F600 X109.574 Y111.328 E0.00671
G1 X109.294 Y111.205 E0.01281
G1 X109.044 Y111.019 E0.01903
G1 X108.949 Y110.92 E0.02177
G1 X108.77 Y110.656 E0.02813
G1 X108.653 Y110.357 E0.03454
G1 X108.604 Y110.023 E0.04128
G1 X108.605 Y109.916 E0.04341
G1 X108.672 Y109.574 E0.05037
G1 X108.795 Y109.294 E0.05647
G1 X108.981 Y109.044 E0.06269
G1 X109.08 Y108.949 E0.06543
G1 X109.344 Y108.77 E0.07179
G1 X109.643 Y108.653 E0.0782
G1 X109.977 Y108.604 E0.08494
G1 X110.084 Y108.605 E0.08707
G1 X110.426 Y108.672 E0.09403
G1 X110.706 Y108.795 E0.10013
G1 X110.956 Y108.981 E0.10635
G1 X111.051 Y109.08 E0.10909
G1 X111.23 Y109.344 E0.11545
G1 X111.347 Y109.643 E0.12186
G1 X111.396 Y109.977 E0.1286
G1 X111.395 Y110.084 E0.13073
G1 X111.329 Y110.423 E0.13762
G1 X111.201 Y110.711 E0.14391
G1 X111.019 Y110.956 E0.15
G1 X110.922 Y111.049 E0.15268
G1 X110.629 Y111.247 E0.15974
G1 X110.535 Y111.291 E0.16181
G1 X110.19 Y111.382 E0.16893
G1 X109.904 Y111.392 E0.17464
G0 F6000 X109.873 Y111.794
G1 F600 X109.456 Y111.713 E0.18312
G1 X109.093 Y111.553 E0.19104
G1 X108.775 Y111.317 E0.19894
G1 X108.639 Y111.175 E0.20286
G1 X108.412 Y110.84 E0.21094
G1 X108.264 Y110.461 E0.21906
G1 X108.203 Y110.051 E0.22733
G1 X108.206 Y109.873 E0.23088
G1 X108.287 Y109.456 E0.23936
G1 X108.447 Y109.093 E0.24728
G1 X108.683 Y108.775 E0.25518
G1 X108.825 Y108.639 E0.2591
G1 X109.16 Y108.412 E0.26718
G1 X109.539 Y108.264 E0.2753
G1 X109.949 Y108.203 E0.28357
G1 X110.127 Y108.206 E0.28712
G1 X110.544 Y108.287 E0.2956
G1 X110.907 Y108.447 E0.30352
G1 X111.225 Y108.683 E0.31142
G1 X111.361 Y108.825 E0.31534
G1 X111.588 Y109.16 E0.32342
G1 X111.736 Y109.539 E0.33154
G1 X111.797 Y109.949 E0.33981
G1 X111.794 Y110.127 E0.34336
G1 X111.713 Y110.544 E0.35184
G1 X111.55 Y110.911 E0.35986
G1 X111.317 Y111.225 E0.36766
G1 X111.175 Y111.361 E0.37158
G1 X110.83 Y111.595 E0.3799
G1 X110.667 Y111.67 E0.38348
G1 X110.249 Y111.78 E0.39211
G1 X109.873 Y111.794 E0.39962
G0 F6000 X109.829 Y112.193
;TYPE:WALL-OUTER
G1 F600 X109.349 Y112.1 E0.40937
G1 X109.116 Y112.015 E0.41432
G1 X108.888 Y111.897 E0.41945
G1 X108.695 Y111.771 E0.42405
G1 X108.502 Y111.609 E0.42907
G1 X108.327 Y111.427 E0.43411
G1 X108.054 Y111.024 E0.44383
G1 X107.875 Y110.566 E0.45364
G1 X107.802 Y110.079 E0.46347
G1 X107.807 Y109.829 E0.46846
G1 X107.9 Y109.349 E0.47821
G1 X107.985 Y109.116 E0.48316
G1 X108.103 Y108.888 E0.48829
G1 X108.229 Y108.695 E0.49289
G1 X108.391 Y108.502 E0.49791
G1 X108.573 Y108.327 E0.50295
G1 X108.976 Y108.054 E0.51267
G1 X109.434 Y107.875 E0.52248
G1 X109.921 Y107.802 E0.53231
G1 X110.171 Y107.807 E0.5373
G1 X110.651 Y107.9 E0.54705
G1 X110.884 Y107.985 E0.552
G1 X111.112 Y108.103 E0.55713
G1 X111.305 Y108.229 E0.56173
G1 X111.498 Y108.391 E0.56676
G1 X111.673 Y108.573 E0.57179
G1 X111.946 Y108.976 E0.58151
G1 X112.125 Y109.434 E0.59132
G1 X112.198 Y109.921 E0.60115
G1 X112.193 Y110.171 E0.60614
G1 X112.1 Y110.651 E0.6159
G1 X112.015 Y110.884 E0.62085
G1 X111.897 Y111.111 E0.62595
G1 X111.771 Y111.305 E0.63057
G1 X111.609 Y111.498 E0.6356
G1 X111.427 Y111.673 E0.64063
G1 X111.027 Y111.944 E0.65028
G1 X110.799 Y112.049 E0.65529
G1 X110.322 Y112.175 E0.66513
G1 X110.079 Y112.198 E0.67
G1 X109.829 Y112.193 E0.67499
G0 F6000 X109.875 Y111.756
G0 X109.935 Y111
;TYPE:SKIN
G1 F600 X109.688 Y110.953 E0.68001
G1 X109.491 Y110.866 E0.68431
G1 X109.257 Y110.68 E0.69027
G1 X109.116 Y110.472 E0.69529
G1 X109.033 Y110.258 E0.69987
G1 X108.994 Y109.991 E0.70525
G1 X108.995 Y109.952 E0.70603
G1 X109.046 Y109.692 E0.71132
G1 X109.134 Y109.491 E0.7157
G1 X109.32 Y109.257 E0.72166
G1 X109.528 Y109.116 E0.72668
G1 X109.742 Y109.033 E0.73126
G1 X110.004 Y108.994 E0.73654
G1 X110.048 Y108.995 E0.73742
G1 X110.308 Y109.046 E0.74271
G1 X110.509 Y109.134 E0.74709
G1 X110.743 Y109.32 E0.75305
G1 X110.884 Y109.528 E0.75807
G1 X110.967 Y109.742 E0.76265
G1 X111.006 Y110.004 E0.76793
G1 X111.005 Y110.044 E0.76873
G1 X110.955 Y110.306 E0.77406
G1 X110.721 Y110.704 E0.78327
G1 X110.684 Y110.739 E0.78429
G1 X110.435 Y110.906 E0.79027
G1 X110.398 Y110.924 E0.79109
G1 X110.134 Y110.994 E0.79654
G1 X109.935 Y111 E0.80051
G0 F6000 X109.252 Y110.383
G1 F600 X109.613 Y110.744 E0.8107
G0 F6000 X110.235 Y110.8
G1 F600 X109.194 Y109.76 E0.84007
G0 F6000 X109.404 Y109.404
G1 F600 X110.597 Y110.597 E0.87374
G0 F6000 X110.805 Y110.24
G1 F600 X109.762 Y109.196 E0.90319
G0 F6000 X110.385 Y109.254
G1 F600 X110.747 Y109.615 E0.91339
G0 F6000 X111.435 Y109.348
;MESH:NONMESH
G0 F300 X111.435 Y109.348 Z0.24
G0 F6000 X111.053 Y110.623
G0 X110.861 Y110.858
G0 X110.053 Y111.395
;TIME_ELAPSED:9.739193
;LAYER:1
M106 S85
;TYPE:WALL-INNER
;MESH:FingerBoltsV2.stl
G1 F600 X109.725 Y111.37 E0.91995
G1 X109.596 Y111.337 E0.92261
G1 X109.284 Y111.199 E0.92942
G1 X109.19 Y111.137 E0.93167
G1 X108.936 Y110.901 E0.93858
G1 X108.762 Y110.647 E0.94473
G1 X108.652 Y110.364 E0.95079
G1 X108.605 Y110.057 E0.95699
G1 X108.63 Y109.725 E0.96363
G1 X108.663 Y109.596 E0.96629
G1 X108.801 Y109.284 E0.9731
G1 X108.863 Y109.19 E0.97534
G1 X109.099 Y108.936 E0.98226
G1 X109.353 Y108.762 E0.98841
G1 X109.636 Y108.652 E0.99447
G1 X109.943 Y108.605 E1.00066
G1 X110.275 Y108.63 E1.00731
G1 X110.404 Y108.663 E1.00996
G1 X110.716 Y108.801 E1.01677
G1 X110.81 Y108.863 E1.01902
G1 X111.064 Y109.099 E1.02594
G1 X111.238 Y109.353 E1.03208
G1 X111.348 Y109.636 E1.03814
G1 X111.395 Y109.943 E1.04434
G1 X111.37 Y110.275 E1.05098
G1 X111.337 Y110.404 E1.05364
G1 X111.199 Y110.716 E1.06045
G1 X111.137 Y110.81 E1.0627
G1 X110.902 Y111.063 E1.06959
G1 X110.651 Y111.234 E1.07565
G1 X110.364 Y111.348 E1.08181
G1 X110.053 Y111.395 E1.08809
G0 F7500 X110.069 Y111.797
G1 F600 X109.66 Y111.766 E1.09627
G1 X109.467 Y111.717 E1.10025
G1 X109.092 Y111.552 E1.10842
G1 X108.937 Y111.449 E1.11214
G1 X108.632 Y111.165 E1.12045
G1 X108.405 Y110.833 E1.12848
G1 X108.264 Y110.472 E1.13621
G1 X108.203 Y110.069 E1.14435
G1 X108.234 Y109.66 E1.15253
G1 X108.283 Y109.467 E1.15651
G1 X108.448 Y109.092 E1.16468
G1 X108.551 Y108.937 E1.1684
G1 X108.835 Y108.632 E1.17671
G1 X109.167 Y108.405 E1.18474
G1 X109.528 Y108.264 E1.19247
G1 X109.931 Y108.203 E1.20061
G1 X110.34 Y108.234 E1.20879
G1 X110.533 Y108.283 E1.21277
G1 X110.908 Y108.448 E1.22094
G1 X111.063 Y108.551 E1.22466
G1 X111.368 Y108.835 E1.23297
G1 X111.595 Y109.167 E1.241
G1 X111.736 Y109.528 E1.24873
G1 X111.797 Y109.931 E1.25687
G1 X111.766 Y110.34 E1.26505
G1 X111.717 Y110.533 E1.26903
G1 X111.552 Y110.908 E1.2772
G1 X111.449 Y111.063 E1.28092
G1 X111.165 Y111.368 E1.28923
G1 X110.839 Y111.59 E1.2971
G1 X110.469 Y111.737 E1.30505
G1 X110.069 Y111.797 E1.31312
G0 F7500 X110.069 Y112.198
;TYPE:WALL-OUTER
G1 F600 X109.595 Y112.162 E1.32261
G1 X109.339 Y112.097 E1.32788
G1 X108.901 Y111.905 E1.33742
G1 X108.684 Y111.761 E1.34262
G1 X108.33 Y111.431 E1.35228
G1 X108.055 Y111.028 E1.36201
G1 X107.948 Y110.792 E1.36718
G1 X107.876 Y110.573 E1.37178
G1 X107.825 Y110.325 E1.37684
G1 X107.802 Y110.069 E1.38197
G1 X107.838 Y109.595 E1.39145
G1 X107.903 Y109.339 E1.39672
G1 X108.095 Y108.901 E1.40627
G1 X108.239 Y108.684 E1.41146
G1 X108.569 Y108.33 E1.42112
G1 X108.972 Y108.055 E1.43086
G1 X109.208 Y107.948 E1.43603
G1 X109.427 Y107.876 E1.44063
G1 X109.675 Y107.825 E1.44568
G1 X109.931 Y107.802 E1.45081
G1 X110.405 Y107.838 E1.4603
G1 X110.661 Y107.903 E1.46557
G1 X111.099 Y108.095 E1.47511
G1 X111.316 Y108.239 E1.48031
G1 X111.67 Y108.569 E1.48997
G1 X111.945 Y108.972 E1.49971
G1 X112.052 Y109.208 E1.50488
G1 X112.124 Y109.427 E1.50948
G1 X112.175 Y109.675 E1.51453
G1 X112.198 Y109.931 E1.51966
G1 X112.162 Y110.405 E1.52915
G1 X112.097 Y110.661 E1.53442
G1 X111.905 Y111.099 E1.54396
G1 X111.761 Y111.316 E1.54916
G1 X111.431 Y111.67 E1.55881
G1 X111.031 Y111.943 E1.56848
G1 X110.802 Y112.048 E1.57351
G1 X110.573 Y112.124 E1.57832
G1 X110.325 Y112.175 E1.58337
G1 X110.069 Y112.198 E1.5885
G0 F7500 X110.066 Y111.758
G0 X110.032 Y111.003
;TYPE:SKIN
G1 F600 X109.726 Y110.968 E1.59465
G1 X109.469 Y110.854 E1.60026
G1 X109.431 Y110.829 E1.60117
G1 X109.234 Y110.646 E1.60653
G1 X109.032 Y110.268 E1.61509
G1 X108.997 Y110.036 E1.61977
G1 X109.032 Y109.726 E1.626
G1 X109.146 Y109.469 E1.63161
G1 X109.171 Y109.431 E1.63251
G1 X109.354 Y109.234 E1.63788
G1 X109.732 Y109.032 E1.64643
G1 X109.964 Y108.997 E1.65111
G1 X110.274 Y109.032 E1.65734
G1 X110.531 Y109.146 E1.66295
G1 X110.569 Y109.171 E1.66386
G1 X110.766 Y109.354 E1.66922
G1 X110.968 Y109.732 E1.67778
G1 X111.003 Y109.964 E1.68246
G1 X110.968 Y110.274 E1.68869
G1 X110.854 Y110.531 E1.6943
G1 X110.829 Y110.569 E1.6952
G1 X110.647 Y110.765 E1.70054
G1 X110.262 Y110.968 E1.70923
G1 X110.032 Y111.003 E1.71387
G0 F7500 X109.803 Y110.814
G1 F600 X110.816 Y109.8 E1.74247
G0 F7500 X110.616 Y109.434
G1 F600 X109.436 Y110.615 E1.77579
G0 F7500 X109.214 Y110.271
G1 F600 X110.276 Y109.209 E1.80576
G0 F7500 X109.68 Y109.239
G1 F600 X109.217 Y109.702 E1.81883
G0 F7500 X108.541 Y109.402
;MESH:NONMESH
G0 F300 X108.541 Y109.402 Z0.36
G0 F7500 X108.915 Y110.567
G0 X109.223 Y110.919
G0 X109.913 Y111.395
;TIME_ELAPSED:14.918942
;LAYER:2
M106 S170
;TYPE:WALL-INNER
;MESH:FingerBoltsV2.stl
G1 F600 X109.568 Y111.329 E1.82584
G1 X109.462 Y111.29 E1.82809
G1 X109.173 Y111.124 E1.83474
G1 X108.943 Y110.91 E1.84101
G1 X108.766 Y110.651 E1.84727
G1 X108.651 Y110.361 E1.8535
G1 X108.603 Y110.047 E1.85984
G1 X108.605 Y109.913 E1.86251
G1 X108.671 Y109.568 E1.86952
G1 X108.71 Y109.462 E1.87178
G1 X108.876 Y109.173 E1.87843
G1 X109.09 Y108.943 E1.8847
G1 X109.349 Y108.766 E1.89096
G1 X109.639 Y108.651 E1.89718
G1 X109.953 Y108.603 E1.90352
G1 X110.087 Y108.605 E1.90619
G1 X110.432 Y108.671 E1.9132
G1 X110.538 Y108.71 E1.91546
G1 X110.827 Y108.876 E1.92211
G1 X111.057 Y109.09 E1.92838
G1 X111.234 Y109.349 E1.93464
G1 X111.349 Y109.639 E1.94086
G1 X111.397 Y109.953 E1.9472
G1 X111.395 Y110.087 E1.94988
G1 X111.329 Y110.432 E1.95689
G1 X111.29 Y110.538 E1.95914
G1 X111.124 Y110.827 E1.96579
G1 X110.91 Y111.057 E1.97206
G1 X110.651 Y111.234 E1.97832
G1 X110.361 Y111.349 E1.98455
G1 X110.047 Y111.397 E1.99089
G1 X109.913 Y111.395 E1.99356
G0 F9000 X109.873 Y111.794
G1 F600 X109.461 Y111.716 E2.00193
G1 X109.288 Y111.652 E2.00561
G1 X108.934 Y111.448 E2.01376
G1 X108.638 Y111.174 E2.02181
G1 X108.41 Y110.839 E2.0299
G1 X108.263 Y110.469 E2.03785
G1 X108.202 Y110.071 E2.04588
G1 X108.206 Y109.873 E2.04983
G1 X108.284 Y109.461 E2.0582
G1 X108.348 Y109.288 E2.06188
G1 X108.552 Y108.934 E2.07004
G1 X108.826 Y108.638 E2.07808
G1 X109.161 Y108.41 E2.08617
G1 X109.531 Y108.263 E2.09412
G1 X109.929 Y108.202 E2.10215
G1 X110.127 Y108.206 E2.1061
G1 X110.539 Y108.284 E2.11447
G1 X110.712 Y108.348 E2.11815
G1 X111.066 Y108.552 E2.12631
G1 X111.362 Y108.826 E2.13436
G1 X111.59 Y109.161 E2.14244
G1 X111.737 Y109.531 E2.15039
G1 X111.798 Y109.929 E2.15842
G1 X111.794 Y110.127 E2.16238
G1 X111.716 Y110.539 E2.17074
G1 X111.652 Y110.712 E2.17442
G1 X111.448 Y111.066 E2.18258
G1 X111.174 Y111.362 E2.19063
G1 X110.839 Y111.59 E2.19871
G1 X110.469 Y111.737 E2.20666
G1 X110.071 Y111.798 E2.21469
G1 X109.873 Y111.794 E2.21865
G0 F9000 X109.833 Y112.193
;TYPE:WALL-OUTER
G1 F600 X109.356 Y112.103 E2.22833
G1 X109.117 Y112.015 E2.23342
G1 X108.7 Y111.774 E2.24303
G1 X108.504 Y111.611 E2.24811
G1 X108.33 Y111.431 E2.25311
G1 X108.057 Y111.031 E2.26278
G1 X107.952 Y110.802 E2.2678
G1 X107.876 Y110.573 E2.27262
G1 X107.825 Y110.325 E2.27767
G1 X107.802 Y110.084 E2.2825
G1 X107.807 Y109.833 E2.28751
G1 X107.897 Y109.356 E2.2972
G1 X107.985 Y109.117 E2.30228
G1 X108.226 Y108.7 E2.31189
G1 X108.389 Y108.504 E2.31698
G1 X108.569 Y108.33 E2.32198
G1 X108.969 Y108.057 E2.33164
G1 X109.198 Y107.952 E2.33667
G1 X109.427 Y107.876 E2.34148
G1 X109.675 Y107.825 E2.34654
G1 X109.916 Y107.802 E2.35137
G1 X110.167 Y107.807 E2.35638
G1 X110.644 Y107.897 E2.36606
G1 X110.883 Y107.985 E2.37115
G1 X111.3 Y108.226 E2.38076
G1 X111.496 Y108.389 E2.38584
G1 X111.67 Y108.569 E2.39084
G1 X111.943 Y108.969 E2.40051
G1 X112.048 Y109.198 E2.40553
G1 X112.124 Y109.427 E2.41035
G1 X112.175 Y109.675 E2.4154
G1 X112.198 Y109.916 E2.42023
G1 X112.193 Y110.167 E2.42524
G1 X112.103 Y110.644 E2.43493
G1 X112.015 Y110.883 E2.44001
G1 X111.774 Y111.3 E2.44962
G1 X111.611 Y111.496 E2.45471
G1 X111.431 Y111.67 E2.45971
G1 X111.031 Y111.943 E2.46937
G1 X110.802 Y112.048 E2.4744
G1 X110.573 Y112.124 E2.47921
G1 X110.325 Y112.175 E2.48427
G1 X110.084 Y112.198 E2.4891
G1 X109.833 Y112.193 E2.49411
G0 F9000 X109.878 Y111.756
G0 X109.952 Y111.005
;TYPE:SKIN
G1 F600 X109.676 Y110.953 E2.49971
G1 X109.627 Y110.935 E2.50075
G1 X109.405 Y110.807 E2.50587
G1 X109.114 Y110.468 E2.51478
G1 X109.031 Y110.258 E2.51929
G1 X108.995 Y109.952 E2.52544
G1 X109.047 Y109.676 E2.53104
G1 X109.065 Y109.627 E2.53208
G1 X109.193 Y109.405 E2.5372
G1 X109.532 Y109.114 E2.54611
G1 X109.742 Y109.031 E2.55062
G1 X110.048 Y108.995 E2.55677
G1 X110.324 Y109.047 E2.56237
G1 X110.373 Y109.065 E2.56342
G1 X110.595 Y109.193 E2.56853
G1 X110.886 Y109.532 E2.57744
G1 X110.969 Y109.742 E2.58195
G1 X111.005 Y110.048 E2.5881
G1 X110.953 Y110.324 E2.5937
G1 X110.935 Y110.373 E2.59475
G1 X110.807 Y110.595 E2.59986
G1 X110.468 Y110.886 E2.60878
G1 X110.258 Y110.969 E2.61328
G1 X109.952 Y111.005 E2.61943
G0 F9000 X109.605 Y110.737
G1 F600 X109.252 Y110.384 E2.62939
G0 F9000 X109.193 Y109.759
G1 F600 X110.237 Y110.803 E2.65886
G0 F9000 X110.578 Y110.578
G1 F600 X109.421 Y109.421 E2.69151
G0 F9000 X109.761 Y109.195
G1 F600 X110.805 Y110.24 E2.72099
G0 F9000 X110.746 Y109.614
G1 F600 X110.393 Y109.262 E2.73094
G0 F9000 X110.875 Y109.178
;TYPE:SKIN
G1 F600 X110.945 Y109.247 E2.73192
G0 F9000 X111.004 Y109.208
G0 X111.226 Y109.968
G0 X111.135 Y110.465
G0 X110.796 Y110.929
G0 X110.319 Y111.182
G0 X109.928 Y111.224
G0 X109.069 Y110.877
G0 X109.123 Y110.82
G1 F600 X109.054 Y110.751 E2.73289
G0 F9000 X108.745 Y110.959
;MESH:NONMESH
G0 F300 X108.745 Y110.959 Z0.48
G0 F9000 X109.913 Y111.395
;TIME_ELAPSED:20.431729
;LAYER:3
M106 S255
;TYPE:WALL-INNER
;MESH:FingerBoltsV2.stl
G1 F600 X109.568 Y111.329 E2.7399
G1 X109.462 Y111.29 E2.74215
G1 X109.173 Y111.124 E2.74881
G1 X108.943 Y110.91 E2.75508
G1 X108.766 Y110.651 E2.76134
G1 X108.651 Y110.361 E2.76756
G1 X108.603 Y110.047 E2.7739
G1 X108.605 Y109.913 E2.77657
G1 X108.671 Y109.568 E2.78358
G1 X108.71 Y109.462 E2.78584
G1 X108.876 Y109.173 E2.79249
G1 X109.09 Y108.943 E2.79876
G1 X109.349 Y108.766 E2.80502
G1 X109.639 Y108.651 E2.81124
G1 X109.953 Y108.603 E2.81758
G1 X110.087 Y108.605 E2.82026
G1 X110.432 Y108.671 E2.82727
G1 X110.538 Y108.71 E2.82952
G1 X110.827 Y108.876 E2.83617
G1 X111.057 Y109.09 E2.84244
G1 X111.234 Y109.349 E2.8487
G1 X111.349 Y109.639 E2.85493
G1 X111.397 Y109.953 E2.86127
G1 X111.395 Y110.087 E2.86394
G1 X111.329 Y110.432 E2.87095
G1 X111.29 Y110.538 E2.87321
G1 X111.124 Y110.827 E2.87986
G1 X110.91 Y111.057 E2.88613
G1 X110.651 Y111.234 E2.89239
G1 X110.361 Y111.349 E2.89861
G1 X110.047 Y111.397 E2.90495
G1 X109.913 Y111.395 E2.90762
G0 F9000 X109.873 Y111.794
G1 F600 X109.461 Y111.716 E2.91599
G1 X109.288 Y111.652 E2.91967
G1 X108.934 Y111.448 E2.92783
G1 X108.638 Y111.174 E2.93588
G1 X108.41 Y110.839 E2.94396
G1 X108.263 Y110.469 E2.95191
